!!!COM: Beethoven, Ludwig van
!!!CDT: 1770///-1827///
!!!ODT: 1825///-1826///
!!!OTL: String Quartet No. 14 in C-sharp Minor, Op. 131
!!!OPS: Op. 131
!!!OMV: Mvmt. 5
!!!OMD: Presto
!!!PDT: 1827///
!!!PPP: Mainz
!!!ODE: Dem Baron von Stutterheim gewidmet
!!!MPD: 1825///-1826///
**kern	**dynam	**kern	**dynam	**kern	**dynam	**kern	**dynam
*staff4	*staff4	*staff3	*staff3	*staff2	*staff2	*staff1	*staff1
*Icello	*Icello	*Iviola	*Iviola	*Ivioln	*Ivioln	*Ivioln	*Ivioln
*>[A,B,B1,B,B2,C]	*>[A,B,B1,B,B2,C]	*>[A,B,B1,B,B2,C]	*>[A,B,B1,B,B2,C]	*>[A,B,B1,B,B2,C]	*>[A,B,B1,B,B2,C]	*>[A,B,B1,B,B2,C]	*>[A,B,B1,B,B2,C]
*>norep[A,B,B2,C]	*>norep[A,B,B2,C]	*>norep[A,B,B2,C]	*>norep[A,B,B2,C]	*>norep[A,B,B2,C]	*>norep[A,B,B2,C]	*>norep[A,B,B2,C]	*>norep[A,B,B2,C]
*>A	*>A	*>A	*>A	*>A	*>A	*>A	*>A
*clefF4	*clefF4	*clefC3	*clefC3	*clefG2	*clefG2	*clefG2	*clefG2
*k[f#c#g#d#]	*k[f#c#g#d#]	*k[f#c#g#d#]	*k[f#c#g#d#]	*k[f#c#g#d#]	*k[f#c#g#d#]	*k[f#c#g#d#]	*k[f#c#g#d#]
*E:	*E:	*E:	*E:	*E:	*E:	*E:	*E:
*M2/2	*M2/2	*M2/2	*M2/2	*M2/2	*M2/2	*M2/2	*M2/2
*MM408	*MM408	*MM408	*MM408	*MM408	*MM408	*MM408	*MM408
=1-	=1-	=1-	=1-	=1-	=1-	=1-	=1-
4BB'/	f	1r	.	1r	.	1r	.
4GG#'/	.	.	.	.	.	.	.
4EE'/	.	.	.	.	.	.	.
4GG#'/	.	.	.	.	.	.	.
=2	=2	=2	=2	=2	=2	=2	=2
1r	.	1r	.	1r	.	1r	.
=3	=3	=3	=3	=3	=3	=3	=3
*clefC4	*clefC4	*	*	*	*	*	*
4e\	p	4E'/	p	4G#'/	p	4b'\	p
4r	.	4G#'/	.	4B'/	.	4g#'/	.
2r	.	4G#'/	.	4B'/	.	4e'/	.
.	.	4E'/	.	4G#'/	.	4g#'/	.
=4	=4	=4	=4	=4	=4	=4	=4
4e\	.	4E/	.	4G#/	.	(2b\	.
4r	.	4G#/	.	4B/	.	.	.
2r	.	4G#/	.	4B/	.	2ee\)	.
.	.	4g#\	.	4b\	.	.	.
=5	=5	=5	=5	=5	=5	=5	=5
4B\	.	4f#\	.	4a/	.	4dd#'\	.
4r	.	4e\	.	4g#/	.	4ee'\	.
2r	.	4d#\	.	4f#/	.	4ff#'\	.
.	.	4c#\	.	4e/	.	4gg#'\	.
=6	=6	=6	=6	=6	=6	=6	=6
4B\	.	4B/	.	4d#/	.	4aa\	.
4r	.	4B/	.	4d#/	.	4r	.
2r	.	4c#\	.	4e/	.	2r	.
.	.	4d#\	.	4f#/	.	.	.
=7	=7	=7	=7	=7	=7	=7	=7
4e\	.	4e\	.	4g#/	.	4gg#'\	.
4r	.	4e\	.	4g#/	.	4ff#'\	.
2r	.	4f#\	.	4a/	.	4ee'\	.
.	.	4g#\	.	4b\	.	4dd#'\	.
=8	=8	=8	=8	=8	=8	=8	=8
4A\	.	4a\	.	4cc#\	.	(2cc#\	.
4r	.	4a\	.	4ee\	.	.	.
2r	.	4a\	.	4dd#\	.	2ff#\)	.
.	.	4a\	.	4cc#\	.	.	.
=9	=9	=9	=9	=9	=9	=9	=9
4G#/	f	4d#\	f	4ccn\	f	4gg#\	f
4g#\	.	4ccn\	.	4dd#\	.	4gg#\	.
4g#\	.	4cc\	.	4dd#\	.	4gg#\	.
4g#\	.	4cc\	.	4dd#\	.	4gg#\	.
=10	=10	=10	=10	=10	=10	=10	=10
4g#\	.	4ccn\	.	4dd#\	.	4gg#\	.
4r	.	4G#/	.	4g#/	.	4r	.
2r	.	4G#/	p	4g#/	p	2r	.
.	.	4G#/	.	4g#/	.	.	.
=11	=11	=11	=11	=11	=11	=11	=11
4e\	p	4G#'/	.	4g#'/	.	4bb'\	p
4r	.	4g#'\	.	4b'\	.	4gg#'\	.
2r	.	4g#'\	.	4b'\	.	4ee'\	.
.	.	4e'\	.	4g#'/	.	4gg#'\	.
=12	=12	=12	=12	=12	=12	=12	=12
4e\	.	4e\	.	4g#/	.	(2bb\	.
4r	.	4b\	.	4gg#\	.	.	.
2r	.	4g#\	.	4b\	.	2eee\)	.
.	.	4e\	.	4g#/	.	.	.
=13	=13	=13	=13	=13	=13	=13	=13
4B\	.	4f#\	.	4a/	.	4ddd#'\	.
4r	.	4e\	.	4g#/	.	4eee'\	.
2r	.	4d#\	.	4f#/	.	4fff#'\	.
.	.	4c#\	.	4e/	.	4ggg#'\	.
=14	=14	=14	=14	=14	=14	=14	=14
4B\	.	4B/	.	4d#/	.	4aaa\	.
4B\	.	4b\	.	4dd#\	.	4r	.
4c#\	.	4b\	.	4ee\	.	2r	.
4d#\	.	4b\	.	4ff#\	.	.	.
=15	=15	=15	=15	=15	=15	=15	=15
4e\	.	4b\	.	4gg#\	.	4ggg#'\	.
4e\	.	4ee\	.	4gg#\	.	4fff#'\	.
4f#\	.	4ee\	.	4aa\	.	4eee'\	.
4g#\	.	4b\	.	4bb\	.	4ddd#'\	.
=16	=16	=16	=16	=16	=16	=16	=16
4a\	.	4cc#\	.	4ee\	.	(2ccc#\	.
4a\	.	4cc#\	.	4ff#\	.	.	.
4a\	.	4cc#\	.	4ff#\	.	2fff#\)	.
4a\	.	4cc#\	.	4ff#\	.	.	.
=17	=17	=17	=17	=17	=17	=17	=17
4g#\	f	4b#\	f	4dd#\	f	4ggg#\	f
4g#\	.	4b#\	.	4dd#\	.	4ggg#\	.
4g#\	.	4b#\	.	4dd#\	.	4ggg#\	.
4g#\	.	4b#\	.	4dd#\	.	4ggg#\	.
=18	=18	=18	=18	=18	=18	=18	=18
4g#\	.	4b#\	.	4dd#\	.	4ggg#\	.
4r	.	4G#/	.	4g#/	.	4r	.
2r	.	4G#/	p	4g#/	p	2r	.
.	.	4G#/	.	4g#/	.	.	.
=19	=19	=19	=19	=19	=19	=19	=19
4g#\	.	4G#'/	.	4B#'/	.	4dd#'\	.
4r	p	4B#'/	.	4d#'/	.	4b#'\	p
2r	.	4B#'/	.	4d#'/	.	4g#'/	.
.	.	4G#'/	.	4B#'/	.	4b#'\	.
=20!|:	=20!|:	=20!|:	=20!|:	=20!|:	=20!|:	=20!|:	=20!|:
*>B	*>B	*>B	*>B	*>B	*>B	*>B	*>B
4G#/	.	4G#/	.	4cn/	.	(2dd#\	.
4r	.	4cn\	.	4d#/	.	.	.
2r	.	4c\	.	4d#/	.	2gg#\)	.
.	.	4G#/	.	4c/	.	.	.
=21	=21	=21	=21	=21	=21	=21	=21
4c#\	.	4G#/	.	4c#/	.	4ee'\	.
4r	.	4c#\	.	4e/	.	4cc#'\	.
2r	.	4c#\	.	4e/	.	4g#'/	.
.	.	4G#/	.	4c#/	.	4cc#'\	.
=22	=22	=22	=22	=22	=22	=22	=22
4C#/	.	4A/	.	4c#/	.	(2ee\	.
4r	.	4c#\	.	4e/	.	.	.
2r	.	4c#\	.	4e/	.	2aa\)	.
.	.	4A/	.	4c#/	.	.	.
=23	=23	=23	=23	=23	=23	=23	=23
4F#/	.	4B/	.	4f#/	.	4ff#'\	.
4r	.	4d#\	.	4f#/	.	4dd#'\	.
2r	.	4d#\	.	4f#/	.	4b'\	.
.	.	4B/	.	4d#/	.	4dd#'\	.
=24	=24	=24	=24	=24	=24	=24	=24
4D#/	.	4B/	.	4f#/	.	(2ff#\	.
4r	.	4d#\	.	4f#/	.	.	.
2r	.	4d#\	.	4f#/	.	[2bb\)	.
.	.	4B/	.	4d#/ 4f#/	.	.	.
=25	=25	=25	=25	=25	=25	=25	=25
1r	.	1r	.	1r	.	4bb\]	.
.	.	.	.	.	.	(4ff#\	.
.	.	.	.	.	.	[2bb\)	.
=26	=26	=26	=26	=26	=26	=26	=26
1r	.	1r	.	4r	.	4bb\]	.
.	.	.	.	(4f#/	.	4r	.
.	.	.	.	[2b\)	.	2r	.
=27	=27	=27	=27	=27	=27	=27	=27
1r	.	4r	.	4b\]	.	1r	.
.	.	(4F#/	.	4r	.	.	.
.	.	[2B/)	.	2r	.	.	.
=28	=28	=28	=28	=28	=28	=28	=28
*clefF4	*clefF4	*	*	*	*	*	*
4r	.	4B/]	.	1r	.	1r	.
(4FF#/	.	4r	.	.	.	.	.
[2BB/)	.	2r	.	.	.	.	.
=29	=29	=29	=29	=29	=29	=29	=29
4BB/]	.	1r	.	1r	.	4r	.
4r	.	.	.	.	.	(4ggn\	.
2r	.	.	.	.	.	[2bb\)	.
=30	=30	=30	=30	=30	=30	=30	=30
1r	.	1r	.	4r	.	4bb\]	.
.	.	.	.	(4gn/	.	4r	.
.	.	.	.	[2b\)	.	2r	.
=31	=31	=31	=31	=31	=31	=31	=31
1r	.	4r	.	4b\]	.	1r	.
.	.	(4Gn/	.	4r	.	.	.
.	.	[2B/)	.	2r	.	.	.
=32	=32	=32	=32	=32	=32	=32	=32
4r	.	4B/]	.	1r	.	1r	.
(4GGn/	.	4r	.	.	.	.	.
[2BB/)	.	2r	.	.	.	.	.
=33	=33	=33	=33	=33	=33	=33	=33
4BB/]	.	1r	.	1r	.	4r	.
4r	.	.	.	.	.	8r	.
.	.	.	.	.	.	(8gg#\	.
2r	.	.	.	.	.	4bb\)	.
.	.	.	.	.	.	[4bb\	.
=34	=34	=34	=34	=34	=34	=34	=34
1r	.	1r	.	4r	.	4bb\]	.
.	.	.	.	8r	.	4r	.
.	.	.	.	(8g#/	.	.	.
.	.	.	.	4b\)	.	2r	.
.	.	.	.	[4b\	.	.	.
=35	=35	=35	=35	=35	=35	=35	=35
1r	.	4r	.	4b\]	.	1r	.
.	.	8r	.	4r	.	.	.
.	.	(8G#/	.	.	.	.	.
.	.	4B/)	.	2r	.	.	.
.	.	[4B/	.	.	.	.	.
=36	=36	=36	=36	=36	=36	=36	=36
4r	.	4B/]	.	1r	.	1r	.
8r	.	4r	.	.	.	.	.
(8GG#/	.	.	.	.	.	.	.
4BB/)	.	2r	.	.	.	.	.
(4BB/	.	.	.	.	.	.	.
=37	=37	=37	=37	=37	=37	=37	=37
4D#\)	pp	2r	.	1r	.	1r	.
4BB'/	.	.	.	.	.	.	.
4GG#'/	.	4d#'\	pp	.	.	.	.
4BB'/	.	4B'/	.	.	.	.	.
=38	=38	=38	=38	=38	=38	=38	=38
4D#\	.	4G#'/	.	4d#'/	pp	2r	.
4r	.	4B'/	.	4B'/	.	.	.
4G#\	.	2r'	.	4G#/	.	4d#'/	pp
4r	.	.	.	4B'/	.	4B'/	.
=39	=39	=39	=39	=39	=39	=39	=39
4B\	.	4d#\	.	2r	.	4G#'/	.
4r	.	4B/	.	.	.	4B'/	.
4d#\	.	4G#/	.	4d#/	.	2r	.
4r	.	4B/	.	4B/	.	.	.
=40	=40	=40	=40	=40	=40	=40	=40
4g#\	.	2r	.	4G#/	.	4d#/	.
4r	.	.	.	4B/	.	4B/	.
4g#\	.	4d#\	.	2r	.	4G#/	.
4r	.	4B/	.	.	.	4B/	.
=41	=41	=41	=41	=41	=41	=41	=41
4g#\	.	4G#/	.	2r	.	4dd#\	.
4r	.	4B/	.	.	.	4b\	.
2r	.	4B/	.	4d#/	.	4g#/	.
.	.	4G#/	.	4B/	.	4b\	.
=42	=42	=42	=42	=42	=42	=42	=42
4g#\	.	4g#\	.	4b\	.	(2dd#\	.
4r	.	4b\	.	4dd#\	.	.	.
2r	.	4b\	.	4dd#\	.	2gg#\)	.
.	.	4b\	.	4dd#\	.	.	.
=43	=43	=43	=43	=43	=43	=43	=43
4d#\	.	4a#\	.	4cc#\	.	4ff##\	.
4r	.	4g#\	.	4b\	.	4gg#\	.
2r	.	4d#\	.	4f##/	.	4aa#\	.
.	.	4d#\	.	4g#/	.	4bb\	.
=44	=44	=44	=44	=44	=44	=44	=44
4d#\	.	4f##\	.	4a#/	.	4ccc#\	.
4d#\	.	4g#\	.	4b\	.	4bb\	.
4d#\	.	4a#\	.	4ff##\	.	4aa#\	.
4d#;\	.	4a#;\	.	4ff##;\	.	4ccc#;\	.
=45	=45	=45	=45	=45	=45	=45	=45
*clefC4	*clefC4	*	*	*	*	*	*
4e\	f	4g#'\	f	4gg#'\	f	4bb'\	f
4r	.	4g#'\	.	4b'\	.	4gg#'\	.
2r	.	4g#'\	.	4b'\	.	4ee'\	.
.	.	4e'\	.	4g#'/	.	4gg#'\	.
=46	=46	=46	=46	=46	=46	=46	=46
*clefF4	*clefF4	*	*	*	*	*	*
4e\	.	4e\	.	4g#/	.	(2bb\	.
4r	.	4g#\	.	4b\	.	.	.
2r	.	4g#\	.	4b\	.	2eee\)	.
.	.	4e\	.	4g#/	.	.	.
=47	=47	=47	=47	=47	=47	=47	=47
4B\	.	4f#\	.	4a/	.	4ddd#'\	.
4r	.	4e\	.	4g#/	.	4eee'\	.
2r	.	4d#\	.	4f#/	.	4fff#'\	.
.	.	4c#\	.	4e/	.	4ggg#'\	.
=48	=48	=48	=48	=48	=48	=48	=48
4B\	.	4B/	.	4d#/	.	4aaa\	.
4B\	.	4b\	.	4dd#\	.	4r	.
4c#\	.	4b\	.	4ee\	.	2r	.
4d#\	.	4b\	.	4ff#\	.	.	.
=49	=49	=49	=49	=49	=49	=49	=49
4e\	.	4b\	.	4ee\	.	4ggg#'\	.
4e\	.	4g#\	.	4ee\	.	4fff#'\	.
4f#\	.	4a\	.	4ee\	.	4eee'\	.
4g#\	.	4b\	.	4ee\	.	4ddd#'\	.
=50	=50	=50	=50	=50	=50	=50	=50
4a\	.	4cc#\	.	4ee\	.	(2ccc#\	.
4A\	.	4e\	.	4cc#\	.	.	.
4A#\	.	4e\	.	4cc#\	.	2fff#\)	.
4r	.	4c#\	.	4f#/	.	.	.
=51	=51	=51	=51	=51	=51	=51	=51
4B\	.	4d#\	.	4f#/	.	4ddd#'\	.
4r	.	4f#\	.	4b\	.	4eee'\	.
4F#\	.	4f#\	.	4b-\	.	4ccc#'\	.
4r	.	4f#\	.	4a/	.	4ddd#'\	.
=52	=52	=52	=52	=52	=52	=52	=52
4A\	.	4d#\	.	4f#/	.	(2bb\	.
4r	.	4d#\	.	4f#/	.	.	.
4G#\	.	4B/	.	4e/	.	2eee\)	.
4r	.	4g#\	.	4bn\	.	.	.
=53	=53	=53	=53	=53	=53	=53	=53
4B\	.	4g#\	.	4b\	.	4eee'\	.
4r	.	4f#\	.	4aa\	.	4ddd#'\	.
4BB/	.	4f#\	.	4aa\	.	4ccc#'\	.
4r	.	4f#\	.	4aa\	.	4ddd#'\	.
=54	=54	=54	=54	=54	=54	=54	=54
*clefC4	*clefC4	*	*	*	*	*	*
4E/	.	4B/	.	4gg#\	.	4eee\	.
4f#\	p	4a\	p	4b\	p	4dd#\	p
4e\	.	4g#\	.	4b\	.	4ee\	.
4d#\	.	4f#\	.	4b\	.	4ff#\	.
=55	=55	=55	=55	=55	=55	=55	=55
4e\	.	4g#\	.	4b\	.	(4gg#\	.
4A\	.	4B/	.	4b\	.	4ff#\)	.
4G#/	.	4B/	.	4b\	.	4ee'\	.
4r	.	4e\	.	4b\	.	4dd#'\	.
=56	=56	=56	=56	=56	=56	=56	=56
4A\	.	4e\	.	4a/	.	(4cc#\	.
4r	.	4c#\	.	4f#/	.	4dd#\)	.
4A#\	.	4c#\	.	4f#/	.	4ee'\	.
4r	.	4f#\	.	4cc#\	.	4ff#'\	.
=57	=57	=57	=57	=57	=57	=57	=57
4B\	.	4f#\	.	4b\	.	(4dd#\	.
4r	.	4f#\	.	4b\	.	4ee\)	.
4F#/	.	4f#\	.	4a#/	.	4cc#'\	.
4r	.	4f#\	.	4an/	.	4dd#'\	.
=58	=58	=58	=58	=58	=58	=58	=58
4A\	.	4d#\	.	4f#/	.	(4b\	.
4r	.	4d#\	.	4f#/	.	4cc#\)	.
4G#/	.	4B/	.	4f#/	.	4dd#'\	.
4r	.	4G#/	.	4g#/	.	4ee'\	.
=59	=59	=59	=59	=59	=59	=59	=59
*clefF4	*clefF4	*	*	*	*	*	*
4B\	.	4G#/	.	4B/	.	(4ee\	.
4BB/	.	4F#/	.	4A/	.	4dd#\)	.
4BB/	.	4F#/	.	4a/	.	4cc#'\	.
4BB/	.	4f#\	.	4a/	.	4dd#'\	.
=60	=60	=60	=60	=60	=60	=60	=60
4G#\	.	4B/	.	4e/	.	(4ff#\	.
4GG#/	.	4G#/	.	4B/	.	4ee\)	.
4GG#/	.	4g#\	.	4b\	.	4dd#'\	.
4GG#/	.	4g#\	.	4b\	.	4ee'\	.
=61	=61	=61	=61	=61	=61	=61	=61
4D#\	f	4f#\	f	4b\	f	(4gg#\	f
4DD#/	.	4B/	.	4b\	.	4ff#\)	.
4DD#/	.	4B/	.	4b\	.	4ffn'\	.
4DD#/	.	4B/	.	4b\	.	4ff#'\	.
=62	=62	=62	=62	=62	=62	=62	=62
4E\	.	4B/	.	4b\	.	(4aa\	.
4EE/	.	4B/	.	4b\	.	4gg#\)	.
4EE/	.	4B/	.	4b\	.	4ff#'\	.
4EE/	.	4B/	.	4b\	.	4gg#'\	.
=63	=63	=63	=63	=63	=63	=63	=63
4c#\	f	4e\	f	4a/	f	(4bb\	f
4C#/	.	4c#\ 4e\	.	4cc#\ 4ee\	.	4aa\)	.
4C#/	.	4c#\ 4e\	.	4cc#\ 4ee\	.	4gg#'\	.
4C#/	.	4c#\ 4e\	.	4cc#\ 4ee\	.	4aa'\	.
=64	=64	=64	=64	=64	=64	=64	=64
4G#\	f	4B\ 4e\	f	4b\ 4ee\	f	(4ccc#\	f
4GG#/	.	4B\ 4e\	.	4b\ 4ee\	.	4bb\)	.
4GG#/	.	4B\ 4e\	.	4b\ 4ee\	.	4aa#'\	.
4GG#/	.	4B\ 4e\	.	4b\ 4ee\	.	4bb'\	.
=65	=65	=65	=65	=65	=65	=65	=65
4AA/	f	4c#\ 4e\	f	4cc#\ 4ee\	f	(4dddn\	f
4AA#/	.	4c#\ 4f#\	.	4cc#\ 4ee\	.	4ccc#\)	.
4BB/	.	4B\ 4g#\	.	4b\ 4ee\	.	4eee'\	.
4BB/	.	4B\ 4a\	.	4f#/ 4dd#/	.	4ddd#'\	.
=66	=66	=66	=66	=66	=66	=66	=66
*>B1	*>B1	*>B1	*>B1	*>B1	*>B1	*>B1	*>B1
4E\	.	4B\ 4g#\	.	4e/ 4ee/	.	4eee\	.
2r	.	4G#'/	p	4g#'/	p	4r	.
.	.	4G#'/	.	4g#'/	.	2r	.
*clefC4	*clefC4	*	*	*	*	*	*
4g#\	p	4B#'/	.	4d#'/	.	.	.
=67	=67	=67	=67	=67	=67	=67	=67
4g#\	.	4G#'/	.	4B#'/	.	4dd#'\	p
4r	.	4B#'/	.	4d#'/	.	4b#'\	.
2r	.	4B#'/	.	4d#'/	.	4g#'/	.
.	.	4G#'/	.	4B#'/	.	4b#'\	.
=68:|!	=68:|!	=68:|!	=68:|!	=68:|!	=68:|!	=68:|!	=68:|!
*>B2	*>B2	*>B2	*>B2	*>B2	*>B2	*>B2	*>B2
*clefF4	*clefF4	*	*	*	*	*	*
4E\	.	4B\ 4g#\	.	4e/ 4ee/	.	4eee\	.
4r	.	4r	.	2r	.	4eee\	p
2r	.	2r	.	.	.	4bb\	.
.	.	.	.	4bb\	p	4r	.
=69	=69	=69	=69	=69	=69	=69	=69
*>C	*>C	*>C	*>C	*>C	*>C	*>C	*>C
2r	.	4r	.	4ee\	.	1r	.
.	.	4e\	.	4r	.	.	.
4r	.	4B/	p	2r	.	.	.
4B\	.	4r	.	.	.	.	.
=70	=70	=70	=70	=70	=70	=70	=70
4E\	p	4r	.	4r	.	2r	.
2r	.	4e\	.	4g#/	.	.	.
.	.	4B/	.	4e/	.	4r	.
4B\	.	4r	.	4r	.	4gg#\	p
=71	=71	=71	=71	=71	=71	=71	=71
4E\	.	4r	.	(2G#/	.	(2g#/	.
2r	.	4e\	.	.	.	.	.
.	.	4B/	.	2A/	.	2a/	.
4B\	.	4r	.	.	.	.	.
=72	=72	=72	=72	=72	=72	=72	=72
4E\	.	4r	.	2B/	.	2b\	.
2r	.	4e\	.	.	.	.	.
.	.	4B/	.	2e/)	.	2ee\)	.
4B\	.	4r	.	.	.	.	.
=73	=73	=73	=73	=73	=73	=73	=73
4E\	.	4r	.	(4f#/	.	(4ff#\	.
2r	.	4e\	.	4g#/	.	4gg#\	.
.	.	4B/	.	4a/	.	4aa\	.
4B\	.	4r	.	4f#/	.	4ff#\	.
=74	=74	=74	=74	=74	=74	=74	=74
4E\	.	4r	.	2b\	.	2bb\	.
2r	.	4e\	.	.	.	.	.
.	.	4B/	.	4ee\)	.	4eee\)	.
4B\	.	4r	.	4r	.	4r	.
=75	=75	=75	=75	=75	=75	=75	=75
4E\	.	4r	.	(2G#/	.	(2g#/	.
2r	.	4e\	.	.	.	.	.
.	.	4B/	.	2A/	.	2a/	.
4B\	.	4r	.	.	.	.	.
=76	=76	=76	=76	=76	=76	=76	=76
4E\	.	4r	.	2B/	.	2b\	.
2r	.	4e\	.	.	.	.	.
.	.	4B/	.	2e/)	.	2ee\)	.
4B\	.	4r	.	.	.	.	.
=77	=77	=77	=77	=77	=77	=77	=77
4E\	.	4r	.	(4f#/	.	(4ff#\	.
2r	.	4e\	.	4g#/	.	4gg#\	.
.	.	4B/	.	4a/	.	4aa\	.
4B\	.	4r	.	4f#/	.	4ff#\	.
=78	=78	=78	=78	=78	=78	=78	=78
4E\	.	4r	.	4e/)	.	4ee\)	.
2r	.	4e\	.	4r	.	4r	.
.	.	4B/	.	2r	.	2r	.
4BB/	.	4B/	.	.	.	.	.
=79	=79	=79	=79	=79	=79	=79	=79
4EE/	.	4E/	.	(2G#/	.	(2g#/	.
4E\	.	4e\	.	.	.	.	.
4BB/	.	4B/	.	2A/	.	2a/	.
4BB/	.	4B/	.	.	.	.	.
=80	=80	=80	=80	=80	=80	=80	=80
4EE/	.	4E/	.	2B/	.	2b\	.
4E\	.	4e\	.	.	.	.	.
4BB/	.	4B/	.	2e/)	.	2ee\)	.
4BB/	.	4B/	.	.	.	.	.
=81	=81	=81	=81	=81	=81	=81	=81
4EE/	.	4E/	.	(4f#/	.	(4ff#\	.
4E\	.	4e\	.	4g#/	.	4gg#\	.
4BB/	.	4B/	.	4a/	.	4aa\	.
4BB/	.	4B/	.	4f#/	.	4ff#\	.
=82	=82	=82	=82	=82	=82	=82	=82
4EE/	.	4E/	.	2b\	.	2bb\	.
4E\	.	4e\	.	.	.	.	.
4BB/	.	4B/	.	4ee\)	.	4eee\)	.
4BB/	.	4B/	.	4r	.	4r	.
=83	=83	=83	=83	=83	=83	=83	=83
4EE/	.	4E/	.	(2G#/	.	(2g#/	.
4E\	.	4e\	.	.	.	.	.
4BB/	.	4B/	.	2A/	.	2a/	.
4BB/	.	4B/	.	.	.	.	.
=84	=84	=84	=84	=84	=84	=84	=84
4EE/	.	4E/	.	2B/	.	2b\	.
4E\	.	4e\	.	.	.	.	.
4BB/	.	4B/	.	2e/)	.	2ee\)	.
4BB/	.	4B/	.	.	.	.	.
=85	=85	=85	=85	=85	=85	=85	=85
4EE/	.	4E/	.	(4f#/	.	(4ff#\	.
4E\	.	4e\	.	4g#/	.	4gg#\	.
4BB/	.	4B/	.	4a/	.	4aa\	.
4BB/	.	4B/	.	4f#/	.	4ff#\	.
=86	=86	=86	=86	=86	=86	=86	=86
4EE/	.	4E/	.	4e/)	.	4ee\)	.
2r	.	2r	.	4e'/	.	4ee'\	.
.	.	.	.	4B'/	.	4b'\	.
4BB'/	.	4B'/	.	4r	.	4r	.
=87	=87	=87	=87	=87	=87	=87	=87
4EE'/	.	4E'/	.	1r	.	1r	.
4G#\	pp	2r	.	.	.	.	.
4D#\	.	.	.	.	.	.	.
4r	.	4F#/	pp	.	.	.	.
=88	=88	=88	=88	=88	=88	=88	=88
4r	.	4E/	.	1r	.	1r	.
4F#\	.	2r	.	.	.	.	.
4C#/	.	.	.	.	.	.	.
4r	.	4E/	.	.	.	.	.
=89	=89	=89	=89	=89	=89	=89	=89
4r	.	4D#/	.	1r	.	1r	.
4E\	.	2r	.	.	.	.	.
4BB/	.	.	.	.	.	.	.
4r	.	4D#/	.	.	.	.	.
=90	=90	=90	=90	=90	=90	=90	=90
4r	.	4C#/	.	1r	.	1r	.
4D#\	.	2r	.	.	.	.	.
4AA#/	.	.	.	.	.	.	.
4r	.	4c#\	.	.	.	.	.
=91	=91	=91	=91	=91	=91	=91	=91
1r	.	4B/	.	2r	.	4r	.
.	.	4r	.	.	.	4ccc#\	pp
.	.	2r	.	4r	.	4gg#\	.
.	.	.	.	4bb\	pp	4r	.
=92	=92	=92	=92	=92	=92	=92	=92
1r	.	1r	.	4aa\	.	4r	.
.	.	.	.	2r	.	4bb\	.
.	.	.	.	.	.	4ff#\	.
.	.	.	.	4aa\	.	4r	.
=93	=93	=93	=93	=93	=93	=93	=93
1r	.	1r	.	4gg#\	.	4r	.
.	.	.	.	2r	.	4aa\	.
.	.	.	.	.	.	4ee\	.
.	.	.	.	4gg#\	.	4r	.
=94	=94	=94	=94	=94	=94	=94	=94
1r	.	1r	.	4ff#\	.	4r	.
.	.	.	.	2r	.	4gg#\	.
.	.	.	.	.	.	4dd#\	.
.	.	.	.	4ff#\	.	4r	.
=95	=95	=95	=95	=95	=95	=95	=95
(2GG#/	.	(2G#/	.	4ee\	.	4r	.
.	.	.	.	2r	.	4eee\	.
2AA/	.	2A/	.	.	.	4bb\	.
.	.	.	.	4bb\	.	4r	.
=96	=96	=96	=96	=96	=96	=96	=96
2BB/	.	2B/	.	4ee\	.	4r	.
.	.	.	.	2r	.	4eee\	.
2E\)	.	2e\)	.	.	.	4bb\	.
.	.	.	.	4bb\	.	4r	.
=97	=97	=97	=97	=97	=97	=97	=97
(4F#\	.	(4f#\	.	4ee\	.	4r	.
4G#\	p	4g#\	p	2r	p	4eee\	.
4A\	.	4a\	.	.	.	4bb\	p
4F#\	.	4f#\	.	4bb\	.	4r	.
=98	=98	=98	=98	=98	=98	=98	=98
2B\	.	2b\	.	4ee\	.	4r	.
.	.	.	.	2r	.	4eee\	.
4e\)	.	4ee\)	.	.	.	4bb\	.
4r	.	4r	.	4bb\	.	4r	.
=99	=99	=99	=99	=99	=99	=99	=99
(2GG#/	.	(2G#/	.	4ee\	.	4r	.
.	.	.	.	2r	.	4eee\	.
2AA/	.	2A/	.	.	.	4bb\	.
.	.	.	.	4bb\	.	4r	.
=100	=100	=100	=100	=100	=100	=100	=100
2BB/	.	2B/	.	4ee\	.	4r	.
.	.	.	.	2r	.	4eee\	.
2E\)	.	2e\)	.	.	.	4bb\	.
.	.	.	.	4bb\	.	4r	.
=101	=101	=101	=101	=101	=101	=101	=101
(4F#\	p	(4f#\	p	4ee\	p	4r	.
4G#\	.	4g#\	.	2r	.	4eee\	p
4A\	.	4a\	.	.	.	4bb\	.
4F#\	.	4f#\	.	4bb\	.	4r	.
=102	=102	=102	=102	=102	=102	=102	=102
4E\)	.	4e\)	.	4gg#\	.	4r	.
4r	.	4r	.	2r	.	4eee\	.
2r	.	2r	.	.	.	4bb\	.
.	.	.	.	4b\	.	4bb\	.
=103	=103	=103	=103	=103	=103	=103	=103
(2GG#/	.	(2G#/	.	4e/	.	4ee\	.
.	.	.	.	4ee\	.	4eee\	.
2AA/	.	2A/	.	4b\	.	4bb\	.
.	.	.	.	4b\	.	4bb\	.
=104	=104	=104	=104	=104	=104	=104	=104
2BB/	.	2B/	.	4e/	.	4ee\	.
.	.	.	.	4ee\	.	4eee\	.
2E\)	.	2e\)	.	4b\	.	4bb\	.
.	.	.	.	4b\	.	4bb\	.
=105	=105	=105	=105	=105	=105	=105	=105
(4F#\	p	(4f#\	p	4e/	p	4ee\	p
4G#\	.	4g#\	.	4ee\	.	4eee\	.
4A\	.	4a\	.	4b\	.	4bb\	.
4F#\	.	4f#\	.	4b\	.	4bb\	.
=106	=106	=106	=106	=106	=106	=106	=106
2B\	.	2b\	.	4e/	.	4ee\	.
.	.	.	.	4ee\	.	4eee\	.
4e\)	.	4ee\)	.	4b\	.	4bb\	.
4r	.	4r	.	4b\	.	4bb\	.
=107	=107	=107	=107	=107	=107	=107	=107
(2GG#/	.	(2G#/	.	4e/	.	4ee\	.
.	.	.	.	4ee\	.	4eee\	.
2AA/	.	2A/	.	4b\	.	4bb\	.
.	.	.	.	4b\	.	4bb\	.
=108	=108	=108	=108	=108	=108	=108	=108
2BB/	.	2B/	.	4e/	.	4ee\	.
.	.	.	.	4ee\	.	4eee\	.
2E\)	.	2e\)	.	4b\	.	4bb\	.
.	.	.	.	4b\	.	4bb\	.
=109	=109	=109	=109	=109	=109	=109	=109
(4F#\	.	(4f#\	.	4e/	.	4ee\	.
4G#\	p	4g#\	p	4ee\	p	4eee\	p
4A\	.	4a\	.	4b\	.	4bb\	.
4F#\	.	4f#\	.	4b\	.	4bb\	.
=110	=110	=110	=110	=110	=110	=110	=110
4E\	.	4e\	.	4b\	.	4bb\	.
4F#\	.	4f#\	.	4ee\	.	4eee\	.
4G#\	.	4g#\	.	4b\	.	4bb\	.
4E\)	.	4e\)	.	4b\	.	4bb\	.
=111	=111	=111	=111	=111	=111	=111	=111
(4F#\	.	(4f#\	.	4b\	.	4bb\	.
4G#\	.	4g#\	.	4ee\	.	4eee\	.
4A\	.	4a\	.	4b\	.	4bb\	.
4F#\	.	4f#\	.	4b\	.	4bb\	.
=112	=112	=112	=112	=112	=112	=112	=112
2E\	.	2e\	.	(4b\	.	4bb\	.
.	.	.	.	4ee\)	.	(4eee\	.
2AA/	.	2A/	.	(2A/	.	2a/	.
=113	=113	=113	=113	=113	=113	=113	=113
*k[f#c#g#]	*k[f#c#g#]	*k[f#c#g#]	*k[f#c#g#]	*k[f#c#g#]	*k[f#c#g#]	*k[f#c#g#]	*k[f#c#g#]
2C#/	.	2C#/	.	2c#/	.	2cc#\	.
2EE/	.	2E/	.	2e/	.	2ee\	.
=114	=114	=114	=114	=114	=114	=114	=114
2FF#/	.	2F#/	.	2f#/	.	2ff#\	.
2EE/)	.	2E/)	.	2e/)	.	2ee\)	.
=115	=115	=115	=115	=115	=115	=115	=115
(4FF#/	.	(4F#/	.	(4f#/	.	(4ff#\	.
4GG#/	.	4G#/	.	4g#/	.	4gg#\	.
4AA/	.	4A/	.	4a/	.	4aa\	.
4BB/	.	4B/	.	4b\	.	4bb\	.
=116	=116	=116	=116	=116	=116	=116	=116
2C#/	.	2c#\	.	2cc#\	.	2ccc#\	.
2AA/	.	2A/	.	2a/	.	2aa\	.
=117	=117	=117	=117	=117	=117	=117	=117
2BB/	p	2B/	p	2b\	p	2bb\	p
2E\	.	2e\	.	2ee\	.	2eee\	.
=118	=118	=118	=118	=118	=118	=118	=118
2D\	.	2d\	.	2dd\	.	2ddd\	.
2C#/)	.	2c#\)	.	2cc#\)	.	2ccc#\)	.
=119	=119	=119	=119	=119	=119	=119	=119
(4FF#/	.	(4F#/	.	(4f#/	.	(4ff#\	.
4GG#/	.	4G#/	.	4g#/	.	4gg#\	.
4AA/	.	4A/	.	4a/	.	4aa\	.
4FF#/	.	4F#/	.	4f#/	.	4ff#\	.
=120	=120	=120	=120	=120	=120	=120	=120
2EE/	.	1E	.	4e/)	.	2ee\	.
.	.	.	.	4d/	.	.	.
2AA/	.	.	.	4c#/	.	2a/	.
.	.	.	.	4cc#\	.	.	.
=121	=121	=121	=121	=121	=121	=121	=121
2EE/	.	2C#/	.	4r	.	2cc#\	.
.	.	.	.	4b\	.	.	.
2CC#/	.	[2A/	.	4a/	.	2ee\	.
.	.	.	.	4aa\	.	.	.
=122	=122	=122	=122	=122	=122	=122	=122
2DD/	.	2A/])	.	4r	.	2ff#\	.
.	.	.	.	4dd\	.	.	.
2CC#/)	.	(2A/	.	4a/	.	2ee\)	.
.	.	.	.	4aa\	.	.	.
=123	=123	=123	=123	=123	=123	=123	=123
(4DD/	.	4G#/	.	4r	.	(4ff#\	.
4EE/	.	4F#/	.	4d/	.	4gg#\	.
4FF#/	.	4E/	.	4A/	.	4aa\	.
4GG#/	.	4D/	.	4dd\	.	4bb\	.
=124	=124	=124	=124	=124	=124	=124	=124
2AA/	.	2C#/	.	4r	.	2ccc#\	.
.	.	.	.	4d/	.	.	.
2FF#/	.	2A/	.	4c#/	.	2aa\	.
.	.	.	.	4cc#\	.	.	.
=125	=125	=125	=125	=125	=125	=125	=125
2GG#/	p	2B/	.	4r	.	2bb\	.
.	.	.	.	4f#/	.	.	.
2EE/	.	2G#/	p	4e/	p	2eee\	p
.	.	.	.	4ee\	.	.	.
=126	=126	=126	=126	=126	=126	=126	=126
2GG#/	.	2B/	.	4r	.	2ddd\	.
.	.	.	.	4b\	.	.	.
[2AA/)	.	2c#\)	.	4a/	.	2ccc#\)	.
.	.	.	.	4ee\	.	.	.
=127	=127	=127	=127	=127	=127	=127	=127
1AA_	.	4d\	.	4r	.	(2bb\	.
.	.	4dd\	.	4ffn\	.	.	.
.	.	4cc#\	.	4ee\	.	2ccc#\	.
.	.	4e\	.	4cc#\	.	.	.
=128	=128	=128	=128	=128	=128	=128	=128
2AA/]	.	4B/	.	4r	.	2ddd\	.
.	.	4r	.	4g#/	.	.	.
[2AA/	.	4c#\	.	4a/	.	2ccc#\	.
.	.	4cc#\	.	4e/	.	.	.
=129	=129	=129	=129	=129	=129	=129	=129
1AA_	.	4g#\ 4b\	.	4r	.	2ddd\	.
.	.	4r	.	4b\	.	.	.
.	.	4c#\	.	4a/	.	2eee\	.
.	.	4A/	.	4c#/	.	.	.
=130	=130	=130	=130	=130	=130	=130	=130
(2AA/]	.	4D#/	.	4r	.	2fff#\	.
.	.	4d#\	.	4B#/	.	.	.
2CC#/)	.	4e\	.	4a/	.	2eee\)	.
.	.	4ee\	.	4A/	.	.	.
=131	=131	=131	=131	=131	=131	=131	=131
2DD/	p	4F#/	p	4r	.	(2bb\	p
.	.	4r	.	4f#/	p	.	.
2CC#/	.	4E#/	.	4g#/	.	2ccc#\	.
.	.	4e#\	.	4gg#\	.	.	.
=132	=132	=132	=132	=132	=132	=132	=132
2DD/	.	4E#/	.	4r	.	2bb\	.
.	.	4r	.	4g#/	.	.	.
2DD#/	.	4F#/	.	4f#/	.	2aa\)	.
.	.	4cn\	.	4ff#\	.	.	.
=133	=133	=133	=133	=133	=133	=133	=133
2EE/	p	4A/	.	4r	.	(2ee\	p
.	.	4r	p	4f#/	p	.	.
2E\	.	4G#/	.	4e/	.	2bb\	.
.	.	4g#\	.	4ee\	.	.	.
=134	=134	=134	=134	=134	=134	=134	=134
2AA/	.	4E/	.	4r	.	2ccc#\	.
.	.	4r	.	4f#/	.	.	.
[2AA/	.	4c#\	.	4e/	.	2aa\)	.
.	.	4cc#\	.	4ee\	.	.	.
=135	=135	=135	=135	=135	=135	=135	=135
1AA_	.	4G#/	.	4r	.	(2bb\	.
.	.	4fn\	.	4G#/ 4d/	.	.	.
.	.	4e\	.	4c#/	.	2ccc#\	.
.	.	4A/	.	4cc#\	.	.	.
=136	=136	=136	=136	=136	=136	=136	=136
2AA/]	.	4G#/ 4B/	.	4r	.	2ddd\	.
.	.	4g#\	.	4ffn\	.	.	.
[2AA/	.	4a\	.	4ee\	.	2ccc#\	.
.	.	4ee\	.	4cc#\	.	.	.
=137	=137	=137	=137	=137	=137	=137	=137
1AA_	.	4g#\ 4b\	.	4r	.	2ddd\	.
.	.	4r	.	4B/	.	.	.
.	.	4C#/	.	4A/	.	2eee\	.
.	.	4c#\	.	4a/	.	.	.
=138	=138	=138	=138	=138	=138	=138	=138
2AA/]	.	4cn\	.	4d#/	.	2fff#\	.
.	.	4c\	.	4dd#\	.	.	.
(2CC#/	.	4A/	.	4ee\	.	2eee\)	.
.	.	4a\	.	4e/	.	.	.
=139	=139	=139	=139	=139	=139	=139	=139
2DD/	p	4F#/	p	4r	.	(2bb\	p
.	.	4r	.	4f#/	p	.	.
2CC#/	.	4G#/	.	4e#/	.	2ccc#\	.
.	.	4g#\	.	4ee#\	.	.	.
=140	=140	=140	=140	=140	=140	=140	=140
2DD/	.	4F#/	.	4r	.	2bb\	.
.	.	4r	.	4f#/	.	.	.
2DD#/	.	4f#\	.	4B/	.	2aa\	.
.	.	4B/	.	4b\	.	.	.
=141	=141	=141	=141	=141	=141	=141	=141
2EE/	p	4C#/ 4A/	.	4r	.	2ee\	.
.	.	4a\	p	4c#/	p	.	.
2GG#/	.	4e\	.	4B/	.	2bb\	p
.	.	4dd\	.	4b\	.	.	.
=142	=142	=142	=142	=142	=142	=142	=142
2AA/	.	4e\	.	4r	.	2ccc#\	.
.	.	4B/	.	4d/	.	.	.
2C#/)	.	4C#/	.	4e/	.	2aa\)	.
.	.	4c#\	.	4ee\	.	.	.
=143	=143	=143	=143	=143	=143	=143	=143
(2E\	.	4B/	.	4r	.	4ddd'\	.
.	.	2r	.	4ff#\	.	4bb'\	.
2G#\	.	.	.	4ee\	.	2bb\	.
.	.	4d\	.	4r	.	.	.
=144	=144	=144	=144	=144	=144	=144	=144
2E\	.	4c#\	.	4r	.	4eee'\	.
.	.	2r	.	4f#/	.	4ccc#'\	.
2A\)	.	.	.	4e/	.	2ccc#\	.
.	.	4cc#\	.	4r	.	.	.
=145	=145	=145	=145	=145	=145	=145	=145
(2E\	.	4g#\	.	4r	.	4ddd\	.
.	.	2r	.	4ff#\	.	4bb\	.
2d\)	.	.	.	4ee\	.	4bb\	.
.	.	4g#\	.	4r	.	4bb\	.
=146	=146	=146	=146	=146	=146	=146	=146
(2E\	.	4c#\	.	4r	.	4eee\	.
.	.	2r	.	4f#/	.	4aaa\	.
2c#\)	.	.	.	4e/	.	2aaa\	.
.	.	4ee\	.	4r	.	.	.
=147	=147	=147	=147	=147	=147	=147	=147
(2E\	.	4g#\	.	4r	.	4ddd\	.
.	.	2r	.	4ff#\	.	4bb\	.
2G#\	.	.	.	4ee\	.	2bb\	.
.	.	4d\	.	4r	.	.	.
=148	=148	=148	=148	=148	=148	=148	=148
2E\	.	4c#\	.	4r	.	4eee\	.
.	.	2r	.	4f#/	.	4ccc#\	.
2A\)	.	.	.	4e/	.	2ccc#\	.
.	.	4cc#\	.	4r	.	.	.
=149	=149	=149	=149	=149	=149	=149	=149
(2E\	.	4g#\	.	4r	.	4ddd\	.
.	.	2r	.	4ff#\	.	4bb\	.
2d\)	.	.	.	4ee\	.	4bb\	.
.	.	4g#\	.	4r	.	4bb\	.
=150	=150	=150	=150	=150	=150	=150	=150
(2E\	.	4a\	.	4r	.	4ccc#\	.
.	.	2r	.	4f#/	.	4aa\	.
2c#\)	.	.	.	4e/	.	2aa\	.
.	.	4E/	.	4e/	.	.	.
=151	=151	=151	=151	=151	=151	=151	=151
4D\	.	(2G#/	.	1r	.	2r	.
4BB/	.	.	.	.	.	.	.
2BB/	.	2e\)	.	.	.	4ddd\	.
.	.	.	.	.	.	4bb\	.
=152	=152	=152	=152	=152	=152	=152	=152
4E\	.	1r	.	(2c#/	.	2r	.
4C#/	.	.	.	.	.	.	.
2C#/	.	.	.	2a/)	.	4eee\	.
.	.	.	.	.	.	4ccc#\	.
=153	=153	=153	=153	=153	=153	=153	=153
4D\	.	(2e\	.	1r	.	2r	.
4BB/	.	.	.	.	.	.	.
4BB/	.	2dd\)	.	.	.	4ddd\	.
4BB/	.	.	.	.	.	4bb\	.
=154	=154	=154	=154	=154	=154	=154	=154
4E\	.	2r	.	(2cc#\	.	2r	.
4A\	.	.	.	.	.	.	.
2A\	.	(2c#\	.	2aa\)	.	4eee\	.
.	.	.	.	.	.	4aaa\	.
=155	=155	=155	=155	=155	=155	=155	=155
4AA/	.	2D#/	.	1r	.	2r	.
4FF#/	.	.	.	.	.	.	.
2FF#/	.	2B/)	.	.	.	4aa\	.
.	.	.	.	.	.	4ff#\	.
=156	=156	=156	=156	=156	=156	=156	=156
4BB/	.	1r	.	(2G#/	.	2r	.
4GG#/	.	.	.	.	.	.	.
2GG#/	.	.	.	2e/)	.	4bb\	.
.	.	.	.	.	.	4gg#\	.
=157	=157	=157	=157	=157	=157	=157	=157
4AA/	.	(2d#\	.	1r	.	2r	.
4FF#/	.	.	.	.	.	.	.
4FF#/	.	2b\)	.	.	.	4aa\	.
4FF#/	.	.	.	.	.	4ff#\	.
=158	=158	=158	=158	=158	=158	=158	=158
4BB/	.	2r	.	(2g#/	.	2r	.
4E\	.	.	.	.	.	.	.
2E\	.	(2g#\	.	2ee\)	.	4bb\	.
.	.	.	.	.	.	4eee\	.
=159	=159	=159	=159	=159	=159	=159	=159
4AA/	.	2d#\	.	1r	.	2r	.
4FF#/	f	.	.	.	.	.	.
4FF#/	.	2b\)	f	.	.	4aa\	.
4FF#/	.	.	.	.	.	4ff#\	f
=160	=160	=160	=160	=160	=160	=160	=160
4BB/	f	2r	.	(2g#/	.	2r	.
4E\	.	.	.	.	.	.	.
2E\	.	(2g#\	f	2ee\)	f	4bb\	f
.	.	.	.	.	.	4eee\	.
=161	=161	=161	=161	=161	=161	=161	=161
4AA/	ff	2d#\	.	(2b\	.	2r	.
4FF#/	.	.	.	.	.	.	.
4FF#/	.	2b\)	ff	2aa\)	ff	4aa\	ff
4FF#/	.	.	.	.	.	4ff#\	.
=162	=162	=162	=162	=162	=162	=162	=162
1r	.	1r	.	1r	.	1r	.
=163	=163	=163	=163	=163	=163	=163	=163
1r	.	1r	.	4a/	.	1r	.
.	.	.	.	4r	.	.	.
.	.	.	.	2r	.	.	.
=164	=164	=164	=164	=164	=164	=164	=164
1r	.	1r	.	1r	.	4f#/	.
.	.	.	.	.	.	4r	.
.	.	.	.	.	.	2r	.
=165	=165	=165	=165	=165	=165	=165	=165
1r	.	4d#\	.	1r	.	1r	.
.	.	4r	.	.	.	.	.
.	.	2r	.	.	.	.	.
=166	=166	=166	=166	=166	=166	=166	=166
4f#\	.	1r	.	1r	.	1r	.
4r	.	.	.	.	.	.	.
2r	.	.	.	.	.	.	.
=167	=167	=167	=167	=167	=167	=167	=167
1r	.	4b\	.	1r	.	1r	.
.	.	4r	.	.	.	.	.
.	.	2r	.	.	.	.	.
=168	=168	=168	=168	=168	=168	=168	=168
1r	.	1r	.	4g#/	.	1r	.
.	.	.	.	4r	.	.	.
.	.	.	.	2r	.	.	.
=169	=169	=169	=169	=169	=169	=169	=169
4BB'/	.	1r	.	1r	.	4e/	.
4GG#'/	f	.	.	.	.	4r	.
4EE'/	.	.	.	.	.	2r	.
4GG#'/	.	.	.	.	.	.	.
=170	=170	=170	=170	=170	=170	=170	=170
1r	.	4g#\	.	1r	.	1r	.
.	.	4r	.	.	.	.	.
.	.	2r	.	.	.	.	.
=171	=171	=171	=171	=171	=171	=171	=171
*clefC4	*clefC4	*	*	*	*	*	*
*k[f#c#g#d#]	*k[f#c#g#d#]	*k[f#c#g#d#]	*k[f#c#g#d#]	*k[f#c#g#d#]	*k[f#c#g#d#]	*k[f#c#g#d#]	*k[f#c#g#d#]
4e\	p	4E'/	.	4G#'/	p	4b'\	p
4r	.	4G#'/	p	4B'/	.	4g#'/	.
2r	.	4G#'/	.	4B'/	.	4e'/	.
.	.	4E'/	.	4G#/	.	4g#'/	.
=172	=172	=172	=172	=172	=172	=172	=172
4e\	.	4E/	.	4G#/	.	(2b\	.
4r	.	4G#/	.	4B/	.	.	.
2r	.	4G#/	.	4B/	.	2ee\)	.
.	.	4g#\	.	4b\	.	.	.
=173	=173	=173	=173	=173	=173	=173	=173
4B\	.	4f#\	.	4a/	.	4dd#'\	.
4r	.	4e\	.	4g#/	.	4ee'\	.
2r	.	4d#\	.	4f#/	.	4ff#'\	.
.	.	4c#\	.	4e/	.	4gg#'\	.
=174	=174	=174	=174	=174	=174	=174	=174
4B\	.	4B/	.	4d#/	.	4aa\	.
4r	.	4B/	.	4d#/	.	4r	.
2r	.	4c#\	.	4e/	.	2r	.
.	.	4d#\	.	4f#/	.	.	.
=175	=175	=175	=175	=175	=175	=175	=175
4e\	.	4e\	.	4g#/	.	4gg#'\	.
4r	.	4e\	.	4g#/	.	4ff#'\	.
2r	.	4f#\	.	4a/	.	4ee'\	.
.	.	4g#\	.	4b\	.	4dd#'\	.
=176	=176	=176	=176	=176	=176	=176	=176
4A\	.	4a\	.	4cc#\	.	(2cc#\	.
4r	.	4a\	.	4ee\	.	.	.
2r	.	4a\	.	4dd#\	.	2ff#\)	.
.	.	4a\	.	4cc#\	.	.	.
=177	=177	=177	=177	=177	=177	=177	=177
4G#/	f	4d#\	f	4b#\	f	4gg#\	f
4g#\	.	4b#\	.	4dd#\	.	4gg#\	.
4g#\	.	4b#\	.	4dd#\	.	4gg#\	.
4g#\	.	4b#\	.	4dd#\	.	4gg#\	.
=178	=178	=178	=178	=178	=178	=178	=178
4g#\	.	4b#\	.	4dd#\	.	4gg#\	.
4r	.	4G#/	.	4g#/	.	4r	.
2r	.	4G#/	p	4g#/	p	2r	.
.	.	4G#/	.	4g#/	.	.	.
=179	=179	=179	=179	=179	=179	=179	=179
4e\	p	4G#'/	.	4g#'/	.	4bb'\	p
4r	.	4g#'\	.	4b'\	.	4gg#'\	.
2r	.	4g#'\	.	4b'\	.	4ee'\	.
.	.	4e'\	.	4g#'/	.	4gg#'\	.
=180	=180	=180	=180	=180	=180	=180	=180
4e\	.	4e\	.	4g#/	.	(2bb\	.
4r	.	4b\	.	4gg#\	.	.	.
2r	.	4g#\	.	4b\	.	2eee\)	.
.	.	4e\	.	4g#/	.	.	.
=181	=181	=181	=181	=181	=181	=181	=181
4B\	.	4f#\	.	4a/	.	4ddd#'\	.
4r	.	4e\	.	4g#/	.	4eee'\	.
2r	.	4d#\	.	4f#/	.	4fff#'\	.
.	.	4c#\	.	4e/	.	4ggg#'\	.
=182	=182	=182	=182	=182	=182	=182	=182
4B\	.	4B/	.	4d#/	.	4aaa\	.
4B\	.	4b\	.	4dd#\	.	4r	.
4c#\	.	4b\	.	4ee\	.	2r	.
4d#\	.	4b\	.	4ff#\	.	.	.
=183	=183	=183	=183	=183	=183	=183	=183
4e\	.	4b\	.	4gg#\	.	4ggg#'\	.
4e\	.	4ee\	.	4gg#\	.	4fff#'\	.
4f#\	.	4ee\	.	4aa\	.	4eee'\	.
4g#\	.	4b\	.	4bb\	.	4ddd#'\	.
=184	=184	=184	=184	=184	=184	=184	=184
4a\	.	4cc#\	.	4ee\	.	(2ccc#\	.
4a\	.	4cc#\	.	4ff#\	.	.	.
4a\	.	4cc#\	.	4ff#\	.	2fff#\)	.
4a\	.	4cc#\	.	4ff#\	.	.	.
=185	=185	=185	=185	=185	=185	=185	=185
4g#\	f	4b#\	f	4dd#\	f	4ggg#\	f
4g#\	.	4b#\	.	4dd#\	.	4ggg#\	.
4g#\	.	4b#\	.	4dd#\	.	4ggg#\	.
4g#\	.	4b#\	.	4dd#\	.	4ggg#\	.
=186	=186	=186	=186	=186	=186	=186	=186
4g#\	.	4b#\	.	4dd#\	.	4ggg#\	.
4r	.	4G#/	.	4g#/	.	4r	.
2r	.	4G#/	p	4g#/	p	2r	.
.	.	4G#/	.	4g#/	.	.	.
=187	=187	=187	=187	=187	=187	=187	=187
4g#\	.	4G#/	.	4B#/	.	4dd#'\	.
4r	p	4B#/	.	4d#/	.	4b#'\	p
2r	.	4B#/	.	4d#/	.	4g#'/	.
.	.	4G#/	.	4B#/	.	4b#'\	.
=188	=188	=188	=188	=188	=188	=188	=188
*clefF4	*clefF4	*	*	*	*	*	*
4G#\	.	4G#/	.	4B#/	.	(2dd#\	.
4r	.	4B#/	.	4d#/	.	.	.
2r	.	4B#/	.	4d#/	.	2gg#\)	.
.	.	4G#/	.	4B#/	.	.	.
=189	=189	=189	=189	=189	=189	=189	=189
4c#\	.	4G#/	.	4c#/	.	4ee'\	.
4r	.	4c#\	.	4e/	.	4cc#'\	.
2r	.	4c#\	.	4e/	.	4g#'/	.
.	.	4G#/	.	4c#/	.	4cc#'\	.
=190	=190	=190	=190	=190	=190	=190	=190
4C#/	.	4A/	.	4c#/	.	(2ee\	.
4r	.	4c#\	.	4e/	.	.	.
2r	.	4c#\	.	4e/	.	2aa\)	.
.	.	4A/	.	4c#/	.	.	.
=191	=191	=191	=191	=191	=191	=191	=191
4F#\	.	4B/	.	4f#/	.	4ff#'\	.
4r	.	4d#\	.	4f#/	.	4dd#'\	.
2r	.	4d#\	.	4f#/	.	4b'\	.
.	.	4B/	.	4d#/	.	4dd#'\	.
=192	=192	=192	=192	=192	=192	=192	=192
4D#\	.	4B/	.	4f#/	.	(2ff#\	.
4r	.	4d#\	.	4f#/	.	.	.
2r	.	4d#\	.	4f#/	.	[2bb\)	.
.	.	4B/	.	4d#/ 4f#/	.	.	.
=193	=193	=193	=193	=193	=193	=193	=193
1r	.	1r	.	1r	.	4bb\]	.
.	.	.	.	.	.	(4ff#\	.
.	.	.	.	.	.	[2bb\)	.
=194	=194	=194	=194	=194	=194	=194	=194
1r	.	1r	.	4r	.	4bb\]	.
.	.	.	.	(4f#/	.	4r	.
.	.	.	.	[2b\)	.	2r	.
=195	=195	=195	=195	=195	=195	=195	=195
1r	.	4r	.	4b\]	.	1r	.
.	.	(4F#/	.	4r	.	.	.
.	.	[2B/)	.	2r	.	.	.
=196	=196	=196	=196	=196	=196	=196	=196
4r	.	4B/]	.	1r	.	1r	.
(4FF#/	.	4r	.	.	.	.	.
[2BB/)	.	2r	.	.	.	.	.
=197	=197	=197	=197	=197	=197	=197	=197
4BB/]	.	1r	.	1r	.	4r	.
4r	.	.	.	.	.	(4ggn\	.
2r	.	.	.	.	.	[2bb\)	.
=198	=198	=198	=198	=198	=198	=198	=198
1r	.	1r	.	4r	.	4bb\]	.
.	.	.	.	(4gn/	.	4r	.
.	.	.	.	[2b\)	.	2r	.
=199	=199	=199	=199	=199	=199	=199	=199
1r	.	4r	.	4b\]	.	1r	.
.	.	(4Gn/	.	4r	.	.	.
.	.	[2B/)	.	2r	.	.	.
=200	=200	=200	=200	=200	=200	=200	=200
4r	.	4B/]	.	1r	.	1r	.
(4GGn/	.	4r	.	.	.	.	.
[2BB/)	.	2r	.	.	.	.	.
=201	=201	=201	=201	=201	=201	=201	=201
4BB/]	.	1r	.	1r	.	4r	.
4r	.	.	.	.	.	8r	.
.	.	.	.	.	.	(8gg#\	.
2r	.	.	.	.	.	4bb\)	.
.	.	.	.	.	.	[4bb\	.
=202	=202	=202	=202	=202	=202	=202	=202
1r	.	1r	.	4r	.	4bb\]	.
.	.	.	.	8r	.	4r	.
.	.	.	.	(8g#/	.	.	.
.	.	.	.	4b\)	.	2r	.
.	.	.	.	[4b\	.	.	.
=203	=203	=203	=203	=203	=203	=203	=203
1r	.	4r	.	4b\]	.	1r	.
.	.	8r	.	4r	.	.	.
.	.	(8G#/	.	.	.	.	.
.	.	4B/)	.	2r	.	.	.
.	.	[4B/	.	.	.	.	.
=204	=204	=204	=204	=204	=204	=204	=204
4r	.	4B/]	.	1r	.	1r	.
8r	.	4r	.	.	.	.	.
(8GG#/	.	.	.	.	.	.	.
4BB/)	.	2r	.	.	.	.	.
(4BB/	.	.	.	.	.	.	.
=205	=205	=205	=205	=205	=205	=205	=205
4D#'\)	pp	2r	.	1r	.	1r	.
4BB'/	.	.	.	.	.	.	.
4GG#'/	.	4d#'\	.	.	.	.	.
4BB'/	.	4B'/	pp	.	.	.	.
=206	=206	=206	=206	=206	=206	=206	=206
4D#\	.	4G#'/	.	4d#'/	pp	2r	.
4r	.	4B'/	.	4B'/	.	.	.
4G#\	.	2r	.	4G#'/	.	4d#'/	pp
4r	.	.	.	4B'/	.	4B'/	.
=207	=207	=207	=207	=207	=207	=207	=207
4B\	.	4d#\	.	2r	.	4G#'/	.
4r	.	4B/	.	.	.	4B'/	.
4d#\	.	4G#/	.	4d#/	.	2r	.
4r	.	4B/	.	4B/	.	.	.
=208	=208	=208	=208	=208	=208	=208	=208
4g#\	.	2r	.	4G#/	.	4d#/	.
4r	.	.	.	4B/	.	4B/	.
4g#\	.	4d#\	.	2r	.	4G#/	.
4r	.	4B/	.	.	.	4B/	.
=209	=209	=209	=209	=209	=209	=209	=209
4g#\	.	4G#/	.	2r	.	4dd#\	.
4r	.	4B/	.	.	.	4b\	.
2r	.	4B/	.	4d#/	.	4g#/	.
.	.	4G#/	.	4B/	.	4b\	.
=210	=210	=210	=210	=210	=210	=210	=210
4g#\	.	4g#\	.	4b\	.	2dd#\	.
4r	.	4b\	.	4dd#\	.	.	.
2r	.	4b\	.	4dd#\	.	2gg#\	.
.	.	4b\	.	4dd#\	.	.	.
=211	=211	=211	=211	=211	=211	=211	=211
4d#\	.	4a#\	.	4cc#\	.	4ff##\	.
4r	.	4g#\	.	4b\	.	4gg#\	.
2r	.	4d#\	.	4f##/	.	4aa#\	.
.	.	4d#\	.	4g#/	.	4bb\	.
=212	=212	=212	=212	=212	=212	=212	=212
4d#\	.	4f##\	.	4a#/	.	4ccc#\	.
4d#\	.	4g#\	.	4b\	.	4bb\	.
4d#\	.	4a#\	.	4ff##\	.	4aa#\	.
4d#;\	.	4a#;\	.	4ff##;\	.	4ccc#;\	.
=213	=213	=213	=213	=213	=213	=213	=213
4e\	f	4g#'\	f	4gg#'\	f	4bb'\	f
4r	.	4g#'\	.	4b'\	.	4gg#'\	.
2r	.	4g#'\	.	4b'\	.	4ee'\	.
.	.	4e'\	.	4g#'/	.	4gg#'\	.
=214	=214	=214	=214	=214	=214	=214	=214
4e\	.	4e\	.	4g#/	.	(2bb\	.
4r	.	4g#\	.	4b\	.	.	.
2r	.	4g#\	.	4b\	.	2eee\)	.
.	.	4e\	.	4g#/	.	.	.
=215	=215	=215	=215	=215	=215	=215	=215
4B\	.	4f#\	.	4a/	.	4ddd#'\	.
4r	.	4e\	.	4g#/	.	4eee'\	.
2r	.	4d#\	.	4f#/	.	4fff#'\	.
.	.	4c#\	.	4e/	.	4ggg#'\	.
=216	=216	=216	=216	=216	=216	=216	=216
4B\	.	4B/	.	4d#/	.	4aaa\	.
4B\	.	4b\	.	4dd#\	.	4r	.
4c#\	.	4b\	.	4ee\	.	2r	.
4d#\	.	4b\	.	4ff#\	.	.	.
=217	=217	=217	=217	=217	=217	=217	=217
4e\	.	4b\	.	4ee\	.	4ggg#'\	.
4e\	.	4g#\	.	4ee\	.	4fff#'\	.
4f#\	.	4a\	.	4ee\	.	4eee'\	.
4g#\	.	4b\	.	4ee\	.	4ddd#'\	.
=218	=218	=218	=218	=218	=218	=218	=218
4a\	.	4cc#\	.	4ee\	.	(2ccc#\	.
4A\	.	4e\	.	4cc#\	.	.	.
4A#\	.	4e\	.	4cc#\	.	2fff#\)	.
4r	.	4c#\	.	4f#/	.	.	.
=219	=219	=219	=219	=219	=219	=219	=219
4B\	.	4d#\	.	4f#/	.	4ddd#'\	.
4r	.	4f#\	.	4b\	.	4eee'\	.
4F#\	.	4f#\	.	4a#/	.	4ccc#'\	.
4r	.	4f#\	.	4an/	.	4ddd#'\	.
=220	=220	=220	=220	=220	=220	=220	=220
4A\	.	4d#\	.	4f#/	.	(2bb\	.
4r	.	4d#\	.	4f#/	.	.	.
4G#\	.	4B/	.	4e/	.	2eee\)	.
4r	.	4g#\	.	4b\	.	.	.
=221	=221	=221	=221	=221	=221	=221	=221
4B\	.	4g#\	.	4b\	.	4eee'\	.
4r	.	4f#\	.	4aa\	.	4ddd#'\	.
4BB/	.	4f#\	.	4aa\	.	4ccc#'\	.
4r	.	4f#\	.	4aa\	.	4ddd#'\	.
=222	=222	=222	=222	=222	=222	=222	=222
4E\	.	4B/	.	4gg#\	.	4eee\	.
4f#\	p	4a\	p	4b\	p	4dd#\	p
4e\	.	4g#\	.	4b\	.	4ee\	.
4d#\	.	4f#\	.	4b\	.	4ff#\	.
=223	=223	=223	=223	=223	=223	=223	=223
4e\	.	4g#\	.	4b\	.	(4gg#\	.
4A\	.	4B/	.	4b\	.	4ff#\)	.
4G#\	.	4B/	.	4b\	.	4ee'\	.
4r	.	4e\	.	4b\	.	4dd#'\	.
=224	=224	=224	=224	=224	=224	=224	=224
4A\	.	4e\	.	4a/	.	(4cc#\	.
4r	.	4c#\	.	4f#/	.	4dd#\)	.
4A#\	.	4c#\	.	4f#/	.	4ee'\	.
4r	.	4f#\	.	4cc#\	.	4ff#'\	.
=225	=225	=225	=225	=225	=225	=225	=225
4B\	.	4f#\	.	4b\	.	(4dd#\	.
4r	.	4f#\	.	4b\	.	4ee\)	.
4F#\	.	4f#\	.	4b-\	.	4cc#'\	.
4r	.	4f#\	.	4a/	.	4dd#'\	.
=226	=226	=226	=226	=226	=226	=226	=226
4A\	.	4d#\	.	4f#/	.	(4b\	.
4r	.	4d#\	.	4f#/	.	4cc#\)	.
4G#\	.	4B/	.	4f#/	.	4dd#'\	.
4r	.	4G#/	.	4g#/	.	4ee'\	.
=227	=227	=227	=227	=227	=227	=227	=227
4B\	.	4G#/	.	4B/	.	(4ee\	.
4BB/	.	4F#/	.	4A/	.	4dd#\)	.
4BB/	.	4F#/	.	4a/	.	4cc#'\	.
4BB/	.	4f#\	.	4a/	.	4dd#'\	.
=228	=228	=228	=228	=228	=228	=228	=228
4G#\	.	4B/	.	4e/	.	(4ff#\	.
4GG#/	.	4G#/	.	4B/	.	4ee\)	.
4GG#/	.	4g#\	.	4b\	.	4dd#'\	.
4GG#/	.	4g#\	.	4b\	.	4ee'\	.
=229	=229	=229	=229	=229	=229	=229	=229
4D#\	f	4f#\	f	4b\	f	(4gg#\	f
4DD#/	.	4B/	.	4b\	.	4ff#\)	.
4DD#/	.	4B/	.	4b\	.	4ee#'\	.
4DD#/	.	4B/	.	4b\	.	4ff#'\	.
=230	=230	=230	=230	=230	=230	=230	=230
4E\	.	4B/	.	4b\	.	(4aa\	.
4EE/	.	4B/	.	4b\	.	4gg#\)	.
4EE/	.	4B/	.	4b\	.	4ff#'\	.
4EE/	.	4B/	.	4b\	.	4gg#'\	.
=231	=231	=231	=231	=231	=231	=231	=231
4c#\	f	4e\	f	4a/	f	(4bb\	f
4C#/	.	4c#\ 4e\	.	4cc#\ 4ee\	.	4aa\)	.
4C#/	.	4c#\ 4e\	.	4cc#\ 4ee\	.	4gg#'\	.
4C#/	.	4c#\ 4e\	.	4cc#\ 4ee\	.	4aa'\	.
=232	=232	=232	=232	=232	=232	=232	=232
4G#\	f	4B\ 4e\	f	4b\ 4ee\	f	(4ccc#\	f
4GG#/	.	4B\ 4e\	.	4b\ 4ee\	.	4bb\)	.
4GG#/	.	4B\ 4e\	.	4b\ 4ee\	.	4aa#'\	.
4GG#/	.	4B\ 4e\	.	4b\ 4ee\	.	4bb'\	.
=233	=233	=233	=233	=233	=233	=233	=233
4AA/	f	4c#\ 4e\	f	4cc#\ 4ee\	f	(4dddn\	f
4AA#/	.	4c#\ 4f#\	.	4cc#\ 4ee\	.	4ccc#\)	.
4BB/	.	4B\ 4g#\	.	4b\ 4ee\	.	4eee'\	.
4BB/	.	4B\ 4a\	.	4f#/ 4dd#/	.	4ddd#'\	.
=234	=234	=234	=234	=234	=234	=234	=234
4E\	.	4B\ 4g#\	.	4e/ 4ee/	.	4eee'\	.
4r	.	4r	.	2r	.	4eee'\	.
2r	.	2r	.	.	.	4bb'\	p
.	.	.	.	4bb\	.	4r	.
=235	=235	=235	=235	=235	=235	=235	=235
2r	.	4r	.	4ee\	p	1r	.
.	.	4e\	.	4r	.	.	.
4r	.	4B/	p	2r	.	.	.
4B\	.	4r	.	.	.	.	.
=236	=236	=236	=236	=236	=236	=236	=236
4E\	p	4r	.	4r	.	2r	.
2r	.	4e\	.	4g#/	.	.	.
.	.	4B/	.	4e/	.	4r	.
4B\	.	4r	.	4r	.	4gg#\	.
=237	=237	=237	=237	=237	=237	=237	=237
4E\	.	4r	.	(2G#/	.	(2g#/	p
2r	.	4e\	.	.	.	.	.
.	.	4B/	.	2A/	.	2a/	.
4B\	.	4r	.	.	.	.	.
=238	=238	=238	=238	=238	=238	=238	=238
4E\	.	4r	.	2B/	.	2b\	.
2r	.	4e\	.	.	.	.	.
.	.	4B/	.	2e/)	.	2ee\)	.
4B\	.	4r	.	.	.	.	.
=239	=239	=239	=239	=239	=239	=239	=239
4E\	.	4r	.	(4f#/	.	(4ff#\	.
2r	.	4e\	.	4g#/	.	4gg#\	.
.	.	4B/	.	4a/	.	4aa\	.
4B\	.	4r	.	4f#/	.	4ff#\	.
=240	=240	=240	=240	=240	=240	=240	=240
4E\	.	4r	.	2b\	.	2bb\	.
2r	.	4e\	.	.	.	.	.
.	.	4B/	.	4ee\)	.	4eee\)	.
4B\	.	4r	.	4r	.	4r	.
=241	=241	=241	=241	=241	=241	=241	=241
4E\	.	4r	.	(2G#/	.	(2g#/	.
2r	.	4e\	.	.	.	.	.
.	.	4B/	.	2A/	.	2a/	.
4B\	.	4r	.	.	.	.	.
=242	=242	=242	=242	=242	=242	=242	=242
4E\	.	4r	.	2B/	.	2b\	.
2r	.	4e\	.	.	.	.	.
.	.	4B/	.	2e/)	.	2ee\)	.
4B\	.	4r	.	.	.	.	.
=243	=243	=243	=243	=243	=243	=243	=243
4E\	.	4r	.	(4f#/	.	(4ff#\	.
2r	.	4e\	.	4g#/	.	4gg#\	.
.	.	4B/	.	4a/	.	4aa\	.
4B\	.	4r	.	4f#/	.	4ff#\	.
=244	=244	=244	=244	=244	=244	=244	=244
4E\	.	4r	.	4e/)	.	4ee\)	.
2r	.	4e\	.	4r	.	4r	.
.	.	4B/	.	2r	.	2r	.
4BB/	.	4B/	.	.	.	.	.
=245	=245	=245	=245	=245	=245	=245	=245
4EE/	.	4E/	.	(2G#/	.	(2g#/	.
4E\	.	4e\	.	.	.	.	.
4BB/	.	4B/	.	2A/	.	2a/	.
4BB/	.	4B/	.	.	.	.	.
=246	=246	=246	=246	=246	=246	=246	=246
4EE/	.	4E/	.	2B/	.	2b\	.
4E\	.	4e\	.	.	.	.	.
4BB/	.	4B/	.	2e/)	.	2ee\)	.
4BB/	.	4B/	.	.	.	.	.
=247	=247	=247	=247	=247	=247	=247	=247
4EE/	.	4E/	.	(4f#/	.	(4ff#\	.
4E\	.	4e\	.	4g#/	.	4gg#\	.
4BB/	.	4B/	.	4a/	.	4aa\	.
4BB/	.	4B/	.	4f#/	.	4ff#\	.
=248	=248	=248	=248	=248	=248	=248	=248
4EE/	.	4E/	.	2b\	.	2bb\	.
4E\	.	4e\	.	.	.	.	.
4BB/	.	4B/	.	4ee\)	.	4eee\)	.
4BB/	.	4B/	.	4r	.	4r	.
=249	=249	=249	=249	=249	=249	=249	=249
4EE/	.	4E/	.	(2G#/	.	(2g#/	.
4E\	.	4e\	.	.	.	.	.
4BB/	.	4B/	.	2A/	.	2a/	.
4BB/	.	4B/	.	.	.	.	.
=250	=250	=250	=250	=250	=250	=250	=250
4EE/	.	4E/	.	2B/	.	2b\	.
4E\	.	4e\	.	.	.	.	.
4BB/	.	4B/	.	2e/)	.	2ee\)	.
4BB/	.	4B/	.	.	.	.	.
=251	=251	=251	=251	=251	=251	=251	=251
4EE/	.	4E/	.	(4f#/	.	(4ff#\	.
4E\	.	4e\	.	4g#/	.	4gg#\	.
4BB/	.	4B/	.	4a/	.	4aa\	.
4BB/	.	4B/	.	4f#/	.	4ff#\	.
=252	=252	=252	=252	=252	=252	=252	=252
4EE/	.	4E/	.	4e/)	.	4ee\)	.
2r	.	2r	.	4e'/	.	4ee'\	.
.	.	.	.	4B'/	.	4b'\	.
4BB'/	.	4B'/	.	4r	.	4r	.
=253	=253	=253	=253	=253	=253	=253	=253
4EE'/	.	4E'/	.	1r	.	1r	.
4G#\	.	2r	.	.	.	.	.
4D#\	pp	.	.	.	.	.	.
4r	.	4F#/	pp	.	.	.	.
=254	=254	=254	=254	=254	=254	=254	=254
4r	.	4E/	.	1r	.	1r	.
4F#\	.	2r	.	.	.	.	.
4C#/	.	.	.	.	.	.	.
4r	.	4E/	.	.	.	.	.
=255	=255	=255	=255	=255	=255	=255	=255
4r	.	4D#/	.	1r	.	1r	.
4E\	.	2r	.	.	.	.	.
4BB/	.	.	.	.	.	.	.
4r	.	4D#/	.	.	.	.	.
=256	=256	=256	=256	=256	=256	=256	=256
4r	.	4C#/	.	1r	.	1r	.
4D#\	.	2r	.	.	.	.	.
4AA#/	.	.	.	.	.	.	.
4r	.	4c#\	.	.	.	.	.
=257	=257	=257	=257	=257	=257	=257	=257
1r	.	4B/	.	2r	.	4r	.
.	.	4r	.	.	.	4ccc#\	.
.	.	2r	.	4r	.	4gg#\	pp
.	.	.	.	4bb\	pp	4r	.
=258	=258	=258	=258	=258	=258	=258	=258
1r	.	1r	.	4aa\	.	4r	.
.	.	.	.	4r	.	4bb\	.
.	.	.	.	4r	.	4ff#\	.
.	.	.	.	4aa\	.	4r	.
=259	=259	=259	=259	=259	=259	=259	=259
1r	.	1r	.	4gg#\	.	4r	.
.	.	.	.	4r	.	4aa\	.
.	.	.	.	4r	.	4ee\	.
.	.	.	.	4gg#\	.	4r	.
=260	=260	=260	=260	=260	=260	=260	=260
1r	.	1r	.	4ff#\	.	4r	.
.	.	.	.	4r	.	4gg#\	.
.	.	.	.	4r	.	4dd#\	.
.	.	.	.	4ff#\	.	4r	.
=261	=261	=261	=261	=261	=261	=261	=261
(2GG#/	.	(2G#/	.	4ee\	.	4r	.
.	.	.	.	4r	.	4eee\	.
2AA/	.	2A/	.	4r	.	4bb\	.
.	.	.	.	4bb\	.	4r	.
=262	=262	=262	=262	=262	=262	=262	=262
2BB/	.	2B/	.	4ee\	.	4r	.
.	.	.	.	4r	.	4eee\	.
2E\)	.	2e\)	.	4r	.	4bb\	.
.	.	.	.	4bb\	.	4r	.
=263	=263	=263	=263	=263	=263	=263	=263
(4F#\	.	(4f#\	.	4ee\	.	4r	.
4G#\	p	4g#\	p	4r	p	4eee\	p
4A\	.	4a\	.	4r	.	4bb\	.
4F#\	.	4f#\	.	4bb\	.	4r	.
=264	=264	=264	=264	=264	=264	=264	=264
2B\	.	2b\	.	4ee\	.	4r	.
.	.	.	.	4r	.	4eee\	.
4e\)	.	4ee\)	.	4r	.	4bb\	.
4r	.	4r	.	4bb\	.	4r	.
=265	=265	=265	=265	=265	=265	=265	=265
(2GG#/	.	(2G#/	.	4ee\	.	4r	.
.	.	.	.	4r	.	4eee\	.
2AA/	.	2A/	.	4r	.	4bb\	.
.	.	.	.	4bb\	.	4r	.
=266	=266	=266	=266	=266	=266	=266	=266
2BB/	.	2B/	.	4ee\	.	4r	.
.	.	.	.	4r	.	4eee\	.
2E\)	.	2e\)	.	4r	.	4bb\	.
.	.	.	.	4bb\	.	4r	.
=267	=267	=267	=267	=267	=267	=267	=267
(4F#\	.	(4f#\	.	4ee\	.	4r	.
4G#\	p	4g#\	p	4r	p	4eee\	p
4A\	.	4a\	.	4r	.	4bb\	.
4F#\	.	4f#\	.	4bb\	.	4r	.
=268	=268	=268	=268	=268	=268	=268	=268
4E\)	.	4e\)	.	4gg#\	.	4r	.
4r	.	4r	.	4r	.	4eee\	.
2r	.	2r	.	4r	.	4bb\	.
.	.	.	.	4b\	.	4bb\	.
=269	=269	=269	=269	=269	=269	=269	=269
(2GG#/	.	(2G#/	.	4e/	.	4ee\	.
.	.	.	.	4ee\	.	4eee\	.
2AA/	.	2A/	.	4b\	.	4bb\	.
.	.	.	.	4b\	.	4bb\	.
=270	=270	=270	=270	=270	=270	=270	=270
2BB/	.	2B/	.	4e/	.	4ee\	.
.	.	.	.	4ee\	.	4eee\	.
2E\)	.	2e\)	.	4b\	.	4bb\	.
.	.	.	.	4b\	.	4bb\	.
=271	=271	=271	=271	=271	=271	=271	=271
(4F#\	.	(4f#\	.	4e/	.	4ee\	.
4G#\	p	4g#\	p	4ee\	p	4eee\	p
4A\	.	4a\	.	4b\	.	4bb\	.
4F#\	.	4f#\	.	4b\	.	4bb\	.
=272	=272	=272	=272	=272	=272	=272	=272
2B\	.	2b\	.	4e/	.	4ee\	.
.	.	.	.	4ee\	.	4eee\	.
4e\)	.	4ee\)	.	4b\	.	4bb\	.
4r	.	4r	.	4b\	.	4bb\	.
=273	=273	=273	=273	=273	=273	=273	=273
(2GG#/	.	(2G#/	.	4e/	.	4ee\	.
.	.	.	.	4ee\	.	4eee\	.
2AA/	.	2A/	.	4b\	.	4bb\	.
.	.	.	.	4b\	.	4bb\	.
=274	=274	=274	=274	=274	=274	=274	=274
2BB/	.	2B/	.	4e/	.	4ee\	.
.	.	.	.	4ee\	.	4eee\	.
2E\)	.	2e\)	.	4b\	.	4bb\	.
.	.	.	.	4b\	.	4bb\	.
=275	=275	=275	=275	=275	=275	=275	=275
(4F#\	.	(4f#\	.	4e/	.	4ee\	.
4G#\	p	4g#\	p	4ee\	p	4eee\	p
4A\	.	4a\	.	4b\	.	4bb\	.
4F#\	.	4f#\	.	4b\	.	4bb\	.
=276	=276	=276	=276	=276	=276	=276	=276
4E\	.	4e\	.	4b\	.	4bb\	.
4F#\	.	4f#\	.	4ee\	.	4eee\	.
4G#\	.	4g#\	.	4b\	.	4bb\	.
4E\)	.	4e\)	.	4b\	.	4bb\	.
=277	=277	=277	=277	=277	=277	=277	=277
(4F#\	.	(4f#\	.	4b\	.	4bb\	.
4G#\	.	4g#\	.	4ee\	.	4eee\	.
4A\	.	4a\	.	4b\	.	4bb\	.
4F#\	.	4f#\	.	4b\	.	4bb\	.
=278	=278	=278	=278	=278	=278	=278	=278
2E\	.	2e\	.	(4b\	.	(4bb\	.
.	.	.	.	4ee\)	.	4eee\	.
2AA/	.	2A/	.	(2A/	.	2a/	.
=279	=279	=279	=279	=279	=279	=279	=279
*k[f#c#g#]	*k[f#c#g#]	*k[f#c#g#]	*k[f#c#g#]	*k[f#c#g#]	*k[f#c#g#]	*k[f#c#g#]	*k[f#c#g#]
2C#/	.	2C#/	.	2c#/	.	2cc#\	.
2EE/	.	2E/	.	2e/	.	2ee\	.
=280	=280	=280	=280	=280	=280	=280	=280
2FF#/	.	2F#/	.	2f#/	.	2ff#\	.
2EE/)	.	2E/)	.	2e/)	.	2ee\)	.
=281	=281	=281	=281	=281	=281	=281	=281
(4FF#/	.	(4F#/	.	(4f#/	.	(4ff#\	.
4GG#/	.	4G#/	.	4g#/	.	4gg#\	.
4AA/	.	4A/	.	4a/	.	4aa\	.
4BB/	.	4B/	.	4b\	.	4bb\	.
=282	=282	=282	=282	=282	=282	=282	=282
2C#/	.	2c#\	.	2cc#\	.	2ccc#\	.
2AA/	.	2A/	.	2a/	.	2aa\	.
=283	=283	=283	=283	=283	=283	=283	=283
2BB/	p	2B/	p	2b\	p	2bb\	p
2E\	.	2e\	.	2ee\	.	2eee\	.
=284	=284	=284	=284	=284	=284	=284	=284
2D\	.	2d\	.	2dd\	.	2ddd\	.
2C#/)	.	2c#\)	.	2cc#\)	.	2ccc#\)	.
=285	=285	=285	=285	=285	=285	=285	=285
(4FF#/	.	(4F#/	.	(4f#/	.	(4ff#\	.
4GG#/	.	4G#/	.	4g#/	.	4gg#\	.
4AA/	.	4A/	.	4a/	.	4aa\	.
4FF#/	.	4F#/	.	4f#/	.	4ff#\	.
=286	=286	=286	=286	=286	=286	=286	=286
2EE/	.	1E	.	4e/)	.	2ee\	.
.	.	.	.	4d'/	.	.	.
2AA/	.	.	.	4c#'/	.	2a/	.
.	.	.	.	4cc#'\	.	.	.
=287	=287	=287	=287	=287	=287	=287	=287
2EE/	.	2C#/	.	4r	.	2cc#\	.
.	.	.	.	4b\	.	.	.
2CC#/	.	[2A/	.	4a/	.	2ee\	.
.	.	.	.	4aa\	.	.	.
=288	=288	=288	=288	=288	=288	=288	=288
2DD/	.	2A/])	.	4r	.	2ff#\	.
.	.	.	.	4dd\	.	.	.
2CC#/)	.	(2A/	.	4a/	.	2ee\)	.
.	.	.	.	4aa\	.	.	.
=289	=289	=289	=289	=289	=289	=289	=289
(4DD/	.	4G#/	.	4r	.	(4ff#\	.
4EE/	.	4F#/	.	4d/	.	4gg#\	.
4FF#/	.	4E/	.	4A/	.	4aa\	.
4GG#/	.	4D/	.	4dd\	.	4bb\	.
=290	=290	=290	=290	=290	=290	=290	=290
2AA/	.	2C#/	.	4r	.	2ccc#\	.
.	.	.	.	4d/	.	.	.
2FF#/	.	2A/	.	4c#/	.	2aa\	.
.	.	.	.	4cc#\	.	.	.
=291	=291	=291	=291	=291	=291	=291	=291
2GG#/	p	2B/	p	4r	.	2bb\	p
.	.	.	.	4f#/	p	.	.
2EE/	.	2G#/	.	4e/	.	2eee\	.
.	.	.	.	4ee\	.	.	.
=292	=292	=292	=292	=292	=292	=292	=292
2GG#/	.	2B/	.	4r	.	2ddd\	.
.	.	.	.	4b\	.	.	.
[2AA/)	.	2c#\)	.	4a/	.	2ccc#\)	.
.	.	.	.	4ee\	.	.	.
=293	=293	=293	=293	=293	=293	=293	=293
(1AA]	.	4d\	.	4r	.	(2bb\	.
.	.	4dd\	.	4ffn\	.	.	.
.	.	4cc#\	.	4ee\	.	2ccc#\	.
.	.	4e\	.	4cc#\	.	.	.
=294	=294	=294	=294	=294	=294	=294	=294
2AA/)	.	4B/	.	4r	.	2ddd\	.
.	.	4r	.	4g#/	.	.	.
[2AA/	.	4c#\	.	4a/	.	2ccc#\	.
.	.	4cc#\	.	4e/	.	.	.
=295	=295	=295	=295	=295	=295	=295	=295
1AA_	.	4g#\ 4b\	.	4r	.	2ddd\	.
.	.	4r	.	4b\	.	.	.
.	.	4c#\	.	4a/	.	2eee\	.
.	.	4A/	.	4c#/	.	.	.
=296	=296	=296	=296	=296	=296	=296	=296
(2AA/]	.	4D#/	.	4r	.	2fff#\	.
.	.	4d#\	.	4B#/	.	.	.
2CC#/)	.	4e\	.	4a/	.	2eee\)	.
.	.	4ee\	.	4A/	.	.	.
=297	=297	=297	=297	=297	=297	=297	=297
(2DD/	p	4F#/	p	4r	.	(2bb\	p
.	.	4r	.	4f#/	p	.	.
2CC#/	.	4E#/	.	4g#/	.	2ccc#\	.
.	.	4e#\	.	4gg#\	.	.	.
=298	=298	=298	=298	=298	=298	=298	=298
2DD/	.	4E#/	.	4r	.	2bb\	.
.	.	4r	.	4g#/	.	.	.
2DD#/	.	4F#/	.	4f#/	.	2aa\)	.
.	.	4cn\	.	4ff#\	.	.	.
=299	=299	=299	=299	=299	=299	=299	=299
2EE/	p	4A/	.	4r	.	(2ee\	p
.	.	4r	p	4f#/	p	.	.
2E\	.	4G#/	.	4e/	.	2bb\	.
.	.	4g#\	.	4ee\	.	.	.
=300	=300	=300	=300	=300	=300	=300	=300
2AA/)	.	4E/	.	4r	.	2ccc#\	.
.	.	4r	.	4f#/	.	.	.
[2AA/	.	4c#\	.	4e/	.	2aa\)	.
.	.	4cc#\	.	4ee\	.	.	.
=301	=301	=301	=301	=301	=301	=301	=301
1AA_	.	4G#/	.	4r	.	(2bb\	.
.	.	4fn\	.	4G#/ 4d/	.	.	.
.	.	4e\	.	4c#/	.	2ccc#\	.
.	.	4A/	.	4cc#\	.	.	.
=302	=302	=302	=302	=302	=302	=302	=302
2AA/]	.	4G#/ 4B/	.	4r	.	2ddd\	.
.	.	4g#\	.	4ffn\	.	.	.
[2AA/	.	4a\	.	4ee\	.	2ccc#\	.
.	.	4ee\	.	4cc#\	.	.	.
=303	=303	=303	=303	=303	=303	=303	=303
1AA_	.	4g#\ 4b\	.	4r	.	2ddd\	.
.	.	4r	.	4B/	.	.	.
.	.	4C#/	.	4A/	.	2eee\	.
.	.	4c#\	.	4a/	.	.	.
=304	=304	=304	=304	=304	=304	=304	=304
2AA/]	.	4B#/	.	4d#/	.	2fff#\	.
.	.	4B#/	.	4dd#\	.	.	.
(2CC#/	.	4A/	.	4ee\	.	2eee\)	.
.	.	4a\	.	4e/	.	.	.
=305	=305	=305	=305	=305	=305	=305	=305
2DD/	p	4F#/	p	4r	.	(2bb\	p
.	.	4r	.	4f#/	p	.	.
2CC#/	.	4G#/	.	4e#/	.	2ccc#\	.
.	.	4g#\	.	4ee#\	.	.	.
=306	=306	=306	=306	=306	=306	=306	=306
2DD/	.	4F#/	.	4r	.	2bb\	.
.	.	4r	.	4f#/	.	.	.
2DD#/	.	4f#\	.	4B/	.	2aa\	.
.	.	4B/	.	4b\	.	.	.
=307	=307	=307	=307	=307	=307	=307	=307
2EE/	p	4C#/ 4A/	p	4r	.	2ee\	p
.	.	4a\	.	4c#/	p	.	.
2GG#/	.	4e\	.	4B/	.	2bb\	.
.	.	4dd\	.	4b\	.	.	.
=308	=308	=308	=308	=308	=308	=308	=308
2AA/	.	4e\	.	4r	.	2ccc#\	.
.	.	4B/	.	4d/	.	.	.
2C#/)	.	4C#/	.	4e/	.	2aa\)	.
.	.	4c#\	.	4ee\	.	.	.
=309	=309	=309	=309	=309	=309	=309	=309
(2E\	.	4B/	.	4r	.	4ddd'\	.
.	.	2r	.	4ff#\	.	4bb'\	.
2G#\	.	.	.	4ee\	.	2bb\	.
.	.	4d\	.	4r	.	.	.
=310	=310	=310	=310	=310	=310	=310	=310
2E\	.	4c#\	.	4r	.	4eee'\	.
.	.	2r	.	4f#/	.	4ccc#'\	.
2A\)	.	.	.	4e/	.	2ccc#\	.
.	.	4cc#\	.	4r	.	.	.
=311	=311	=311	=311	=311	=311	=311	=311
(2E\	.	4g#\	.	4r	.	4ddd\	.
.	.	2r	.	4ff#\	.	4bb\	.
2d\)	.	.	.	4ee\	.	4bb\	.
.	.	4g#\	.	4r	.	4bb\	.
=312	=312	=312	=312	=312	=312	=312	=312
(2E\	.	4c#\	.	4r	.	4eee\	.
.	.	2r	.	4f#/	.	4aaa\	.
2c#\)	.	.	.	4e/	.	2aaa\	.
.	.	4ee\	.	4r	.	.	.
=313	=313	=313	=313	=313	=313	=313	=313
(2E\	.	4g#\	.	4r	.	4ddd\	.
.	.	2r	.	4ff#\	.	4bb\	.
2G#\	.	.	.	4ee\	.	2bb\	.
.	.	4d\	.	4r	.	.	.
=314	=314	=314	=314	=314	=314	=314	=314
2E\	.	4c#\	.	4r	.	4eee\	.
.	.	2r	.	4f#/	.	4ccc#\	.
2A\)	.	.	.	4e/	.	2ccc#\	.
.	.	4cc#\	.	4r	.	.	.
=315	=315	=315	=315	=315	=315	=315	=315
(2E\	.	4g#\	.	4r	.	4ddd\	.
.	.	2r	.	4ff#\	.	4bb\	.
2d\)	.	.	.	4ee\	.	4bb\	.
.	.	4g#\	.	4r	.	4bb\	.
=316	=316	=316	=316	=316	=316	=316	=316
(2E\	.	4a\	.	4r	.	4ccc#\	.
.	.	2r	.	4f#/	.	4aa\	.
2c#\)	.	.	.	4e/	.	2aa\	.
.	.	4E/	.	4e/	.	.	.
=317	=317	=317	=317	=317	=317	=317	=317
4D\	.	(2G#/	.	1r	.	2r	.
4BB/	.	.	.	.	.	.	.
2BB/	.	2e\)	.	.	.	4ddd\	.
.	.	.	.	.	.	4bb\	.
=318	=318	=318	=318	=318	=318	=318	=318
4E\	.	1r	.	(2c#/	.	2r	.
4C#/	.	.	.	.	.	.	.
2C#/	.	.	.	2a/)	.	4eee\	.
.	.	.	.	.	.	4ccc#\	.
=319	=319	=319	=319	=319	=319	=319	=319
4D\	.	(2e\	.	1r	.	2r	.
4BB/	.	.	.	.	.	.	.
4BB/	.	2dd\)	.	.	.	4ddd\	.
4BB/	.	.	.	.	.	4bb\	.
=320	=320	=320	=320	=320	=320	=320	=320
4E\	.	2r	.	(2cc#\	.	2r	.
4A\	.	.	.	.	.	.	.
2A\	.	(2c#\	.	2aa\)	.	4eee\	.
.	.	.	.	.	.	4aaa\	.
=321	=321	=321	=321	=321	=321	=321	=321
4AA/	.	2D#/	.	1r	.	2r	.
4FF#/	.	.	.	.	.	.	.
2FF#/	.	2B/)	.	.	.	4aa\	.
.	.	.	.	.	.	4ff#\	.
=322	=322	=322	=322	=322	=322	=322	=322
4BB/	.	1r	.	(2G#/	.	2r	.
4GG#/	.	.	.	.	.	.	.
2GG#/	.	.	.	2e/)	.	4bb\	.
.	.	.	.	.	.	4gg#\	.
=323	=323	=323	=323	=323	=323	=323	=323
4AA/	.	(2d#\	.	1r	.	2r	.
4FF#/	.	.	.	.	.	.	.
4FF#/	.	2b\)	.	.	.	4aa\	.
4FF#/	.	.	.	.	.	4ff#\	.
=324	=324	=324	=324	=324	=324	=324	=324
4BB/	.	2r	.	(2g#/	.	2r	.
4E\	.	.	.	.	.	.	.
2E\	.	(2g#\	.	2ee\)	.	4bb\	.
.	.	.	.	.	.	4eee\	.
=325	=325	=325	=325	=325	=325	=325	=325
4AA/	.	2d#\	.	1r	.	2r	.
4FF#/	f	.	.	.	.	.	.
4FF#/	.	2b\)	f	.	.	4aa\	.
4FF#/	.	.	.	.	.	4ff#\	f
=326	=326	=326	=326	=326	=326	=326	=326
4BB/	f	2r	.	(2g#/	.	2r	.
4E\	.	.	.	.	.	.	.
2E\	.	(2g#\	f	2ee\)	f	4bb\	f
.	.	.	.	.	.	4eee\	.
=327	=327	=327	=327	=327	=327	=327	=327
4AA/	ff	2d#\	.	(2b\	.	2r	.
4FF#/	.	.	.	.	.	.	.
4FF#/	.	2b\)	ff	2aa\)	ff	4aa\	ff
4FF#/	.	.	.	.	.	4ff#\	.
=328	=328	=328	=328	=328	=328	=328	=328
1r	.	1r	.	1r	.	1r	.
=329	=329	=329	=329	=329	=329	=329	=329
1r	.	1r	.	4a/	.	2r	.
.	.	.	.	4r	.	.	.
.	.	.	.	2r	.	4a/	.
.	.	.	.	.	.	4r	.
=330	=330	=330	=330	=330	=330	=330	=330
1r	.	1r	.	2r	.	4f#/	.
.	.	.	.	.	.	4r	.
.	.	.	.	4f#/	.	2r	.
.	.	.	.	4r	.	.	.
=331	=331	=331	=331	=331	=331	=331	=331
1r	.	4d#\	.	2r	.	1r	.
.	.	4r	.	.	.	.	.
.	.	2r	.	4d#/	.	.	.
.	.	.	.	4r	.	.	.
=332	=332	=332	=332	=332	=332	=332	=332
4f#\	.	2r	.	1r	.	1r	.
4r	.	.	.	.	.	.	.
2r	.	4f#\	.	.	.	.	.
.	.	4r	.	.	.	.	.
=333	=333	=333	=333	=333	=333	=333	=333
1r	.	4b\	.	1r	.	2r	.
.	.	4r	.	.	.	.	.
.	.	2r	.	.	.	4b\	.
.	.	.	.	.	.	4r	.
=334	=334	=334	=334	=334	=334	=334	=334
1r	.	2r	.	4g#/	.	1r	.
.	.	.	.	4r	.	.	.
.	.	4g#\	.	2r	.	.	.
.	.	4r	.	.	.	.	.
=335	=335	=335	=335	=335	=335	=335	=335
4BB'/	.	1r	.	2r	.	4e/	.
4GG#'/	.	.	.	.	.	4r	.
4EE'/	.	.	.	4e/	.	2r	.
4GG#'/	.	.	.	4r	.	.	.
=336	=336	=336	=336	=336	=336	=336	=336
1r	.	4g#\	.	2r	.	1r	.
.	.	4r	.	.	.	.	.
.	.	2r	.	4g#/	.	.	.
.	.	.	.	4r	.	.	.
=337	=337	=337	=337	=337	=337	=337	=337
*clefC4	*clefC4	*	*	*	*	*	*
*k[f#c#g#d#]	*k[f#c#g#d#]	*k[f#c#g#d#]	*k[f#c#g#d#]	*k[f#c#g#d#]	*k[f#c#g#d#]	*k[f#c#g#d#]	*k[f#c#g#d#]
4e\	p	4E'/	p	4G#'/	p	4b'\	p
4r	.	4G#'/	.	4B'/	.	4g#'/	.
2r	.	4G#'/	.	4B'/	.	4e'/	.
.	.	4E'/	.	4G#'/	.	4g#'/	.
=338	=338	=338	=338	=338	=338	=338	=338
4e\	.	4E/	.	4G#/	.	(2b\	.
4r	.	4G#/	.	4B/	.	.	.
2r	.	4G#/	.	4B/	.	2ee\)	.
.	.	4g#\	.	4b\	.	.	.
=339	=339	=339	=339	=339	=339	=339	=339
4B\	.	4f#\	.	4a/	.	4dd#'\	.
4r	.	4e\	.	4g#/	.	4ee'\	.
2r	.	4d#\	.	4f#/	.	4ff#'\	.
.	.	4c#\	.	4e/	.	4gg#'\	.
=340	=340	=340	=340	=340	=340	=340	=340
4B\	.	4B/	.	4d#/	.	4aa\	.
4r	.	4B/	.	4d#/	.	4r	.
2r	.	4c#\	.	4e/	.	2r	.
.	.	4d#\	.	4f#/	.	.	.
=341	=341	=341	=341	=341	=341	=341	=341
4e\	.	4e\	.	4g#/	.	4gg#'\	.
4r	.	4e\	.	4g#/	.	4ff#'\	.
2r	.	4f#\	.	4a/	.	4ee'\	.
.	.	4g#\	.	4b\	.	4dd#'\	.
=342	=342	=342	=342	=342	=342	=342	=342
4A\	.	4a\	.	4cc#\	.	(2cc#\	.
4r	.	4a\	.	4ee\	.	.	.
2r	.	4a\	.	4dd#\	.	2ff#\)	.
.	.	4a\	.	4cc#\	.	.	.
=343	=343	=343	=343	=343	=343	=343	=343
4G#/	f	4d#\	f	4b#\	f	4gg#\	f
4g#\	.	4b#\	.	4dd#\	.	4gg#\	.
4g#\	.	4b#\	.	4dd#\	.	4gg#\	.
4g#\	.	4b#\	.	4dd#\	.	4gg#\	.
=344	=344	=344	=344	=344	=344	=344	=344
4g#\	.	4b#\	.	4dd#\	.	4gg#\	.
4r	.	4G#/	p	4g#/	p	4r	.
2r	.	4G#/	.	4g#/	.	2r	.
.	.	4G#/	.	4g#/	.	.	.
=345	=345	=345	=345	=345	=345	=345	=345
4e\	p	4G#'/	.	4g#'/	.	4bb'\	p
4r	.	4g#'\	.	4b'\	.	4gg#'\	.
2r	.	4g#'\	.	4b'\	.	4ee'\	.
.	.	4e'\	.	4g#'/	.	4gg#'\	.
=346	=346	=346	=346	=346	=346	=346	=346
4e\	.	4e\	.	4g#/	.	(2bb\	.
4r	.	4b\	.	4gg#\	.	.	.
2r	.	4g#\	.	4b\	.	2eee\)	.
.	.	4e\	.	4g#/	.	.	.
=347	=347	=347	=347	=347	=347	=347	=347
4B\	.	4f#\	.	4a/	.	4ddd#'\	.
4r	.	4e\	.	4g#/	.	4eee'\	.
2r	.	4d#\	.	4f#/	.	4fff#'\	.
.	.	4c#\	.	4e/	.	4ggg#'\	.
=348	=348	=348	=348	=348	=348	=348	=348
4B\	.	4B/	.	4d#/	.	4aaa\	.
4B\	.	4b\	.	4dd#\	.	4r	.
4c#\	.	4b\	.	4ee\	.	2r	.
4d#\	.	4b\	.	4ff#\	.	.	.
=349	=349	=349	=349	=349	=349	=349	=349
4e\	.	4b\	.	4gg#\	.	4ggg#'\	.
4e\	.	4ee\	.	4gg#\	.	4fff#'\	.
4f#\	.	4ee\	.	4aa\	.	4eee'\	.
4g#\	p	4b\	p	4bb\	p	4ddd#'\	p
=350	=350	=350	=350	=350	=350	=350	=350
4a\	.	4cc#\	.	4ee\	.	(2ccc#\	.
4a\	.	4cc#\	.	4ff#\	.	.	.
4a\	.	4cc#\	.	4ff#\	.	2fff#\)	.
4a\	.	4cc#\	.	4ff#\	.	.	.
=351	=351	=351	=351	=351	=351	=351	=351
4g#\	.	4b#\	.	4dd#\	.	4ggg#\	.
4g#\	.	4b#\	.	4dd#\	.	4ggg#\	.
4g#\	.	4b#\	.	4dd#\	.	4ggg#\	.
4g#\	.	4b#\	.	4dd#\	.	4ggg#\	.
=352	=352	=352	=352	=352	=352	=352	=352
4g#\	.	4b#\	.	4dd#\	.	4ggg#\	.
4r	.	4G#/	.	4g#/	.	4r	.
2r	.	4G#/	.	4g#/	.	2r	.
.	.	4G#/	.	4g#/	.	.	.
=353	=353	=353	=353	=353	=353	=353	=353
4g#\	pp	4G#'/	pp	4B#'/	pp	4dd#'\	pp
4r	.	4B#'/	.	4d#'/	.	4b#'\	.
2r	.	4B#'/	.	4d#'/	.	4g#'/	.
.	.	4G#'/	.	4B#'/	.	4b#'\	.
=354	=354	=354	=354	=354	=354	=354	=354
4G#/	.	4G#/	.	4B#/	.	(2dd#\	.
4r	.	4B#/	.	4d#/	.	.	.
2r	.	4B#/	.	4d#/	.	2gg#\)	.
.	.	4G#/	pp	4B#/	pp	.	.
=355	=355	=355	=355	=355	=355	=355	=355
4c#\	pp	4G#/	.	4c#/	.	4ee'\	pp
4r	.	4c#\	.	4e/	.	4cc#'\	.
2r	.	4c#\	.	4e/	.	4g#'/	.
.	.	4G#/	.	4c#/	.	4cc#'\	.
=356	=356	=356	=356	=356	=356	=356	=356
4C#/	.	4A/	.	4c#/	.	(2ee\	.
4r	.	4c#\	.	4e/	.	.	.
2r	.	4c#\	.	4e/	.	2aa\)	.
.	.	4A/	.	4c#/	.	.	.
=357	=357	=357	=357	=357	=357	=357	=357
4F#/	.	4B/	.	4f#/	.	4ff#'\	.
4r	.	4d#\	.	4f#/	.	4dd#'\	.
2r	.	4d#\	.	4f#/	.	4b'\	.
.	.	4B/	.	4d#/	.	4dd#'\	.
=358	=358	=358	=358	=358	=358	=358	=358
4D#/	.	4B/	.	4f#/	.	(2ff#\	.
4r	.	4d#\	.	4f#/	.	.	.
2r	.	4d#\	.	4f#/	.	[2bb\)	.
.	.	4B/	.	4d#/ 4f#/	.	.	.
=359	=359	=359	=359	=359	=359	=359	=359
1r	.	1r	.	1r	.	4bb\]	.
.	.	.	.	.	.	(4ff#\	.
.	.	.	.	.	.	[2bb\)	.
=360	=360	=360	=360	=360	=360	=360	=360
1r	.	1r	.	4r	.	4bb\]	.
.	.	.	.	(4f#/	.	4r	.
.	.	.	.	[2b\)	.	2r	.
=361	=361	=361	=361	=361	=361	=361	=361
1r	.	4r	.	4b\]	.	1r	.
.	.	(4F#/	.	4r	.	.	.
.	.	[2B/)	.	2r	.	.	.
=362	=362	=362	=362	=362	=362	=362	=362
*clefF4	*clefF4	*	*	*	*	*	*
4r	.	4B/]	.	1r	.	1r	.
(4FF#/	.	4r	.	.	.	.	.
&([2BB/&))	.	2r	.	.	.	.	.
=363	=363	=363	=363	=363	=363	=363	=363
4BB/]	.	1r	.	1r	.	4r	.
4r	.	.	.	.	.	(4ggn\	.
2r	.	.	.	.	.	[2bb\)	.
=364	=364	=364	=364	=364	=364	=364	=364
1r	.	1r	.	4r	.	4bb\]	.
.	.	.	.	(4gn/	.	4r	.
.	.	.	.	[2b\)	.	2r	.
=365	=365	=365	=365	=365	=365	=365	=365
1r	.	4r	.	4b\]	.	1r	.
.	.	(4Gn/	.	4r	.	.	.
.	.	[2B/)	.	2r	.	.	.
=366	=366	=366	=366	=366	=366	=366	=366
4r	.	4B/]	.	1r	.	1r	.
(4GGn/	.	4r	.	.	.	.	.
[2BB/)	.	2r	.	.	.	.	.
=367	=367	=367	=367	=367	=367	=367	=367
4BB/]	.	1r	.	1r	.	4r	.
4r	.	.	.	.	.	8r	.
.	.	.	.	.	.	(8gg#\	.
2r	.	.	.	.	.	4bb\)	.
.	.	.	.	.	.	[4bb\	.
=368	=368	=368	=368	=368	=368	=368	=368
1r	.	1r	.	4r	.	4bb\]	.
.	.	.	.	8r	.	4r	.
.	.	.	.	(8g#/	.	.	.
.	.	.	.	4b\)	.	2r	.
.	.	.	.	[4b\	.	.	.
=369	=369	=369	=369	=369	=369	=369	=369
1r	.	4r	.	4b\]	.	1r	.
.	.	8r	.	4r	.	.	.
.	.	(8G#/	.	.	.	.	.
.	.	4B/)	.	2r	.	.	.
.	.	[4B/	.	.	.	.	.
=370	=370	=370	=370	=370	=370	=370	=370
4r	.	4B/]	.	1r	.	1r	.
8r	.	4r	.	.	.	.	.
(8GG#/	.	.	.	.	.	.	.
4BB/)	.	2r	.	.	.	.	.
(4BB/	.	.	.	.	.	.	.
=371	=371	=371	=371	=371	=371	=371	=371
4D#'\)	pp	2r	.	1r	.	1r	.
4BB'/	.	.	.	.	.	.	.
4GG#'/	.	4d#'\	.	.	.	.	.
4BB'/	.	4B'/	pp	.	.	.	.
=372	=372	=372	=372	=372	=372	=372	=372
4D#\	.	4G#'/	.	4d#'/	pp	2r	.
4r	.	4B'/	.	4B'/	.	.	.
4G#\	.	2r	.	4G#'/	.	4d#'/	pp
4r	.	.	.	4B'/	.	4B'/	.
=373	=373	=373	=373	=373	=373	=373	=373
4B\	.	4d#\	.	2r	.	4G#'/	.
4r	.	4B/	.	.	.	4B'/	.
4d#\	.	4G#/	.	4d#/	.	2r	.
4r	.	4B/	.	4B/	.	.	.
=374	=374	=374	=374	=374	=374	=374	=374
4g#\	.	2r	.	4G#/	.	4d#/	.
4r	.	.	.	4B/	.	4B/	.
4g#\	.	4d#\	.	2r	.	4G#/	.
4r	.	4B/	.	.	.	4B/	.
=375	=375	=375	=375	=375	=375	=375	=375
4g#\	.	4G#/	.	2r	.	4dd#\	.
4r	.	4B/	.	.	.	4b\	.
2r	.	4B/	.	4d#/	.	4g#/	.
.	.	4G#/	.	4B/	.	4b\	.
=376	=376	=376	=376	=376	=376	=376	=376
4g#\	.	4g#\	.	4b\	.	(2dd#\	.
4r	.	4b\	.	4dd#\	.	.	.
2r	.	4b\	.	4dd#\	.	2gg#\)	.
.	.	4b\	.	4dd#\	.	.	.
=377	=377	=377	=377	=377	=377	=377	=377
4d#\	.	4a#\	.	4cc#\	.	4ff##\	.
4r	.	4g#\	.	4b\	.	4gg#\	.
2r	.	4d#\	.	4f##/	.	4aa#\	.
.	.	4d#\	.	4g#/	.	4bb\	.
=378	=378	=378	=378	=378	=378	=378	=378
4d#\	.	4f##\	.	4a#/	.	4ccc#\	.
4d#\	.	4g#\	.	4b\	.	4bb\	.
4d#\	.	4a#\	.	4ff##\	.	4aa#\	.
4d#;\	.	4a#;\	.	4ff##;\	.	4ccc#;\	.
=379	=379	=379	=379	=379	=379	=379	=379
4e\	.	4g#'\	.	4gg#'\	.	4bb'\	.
4r	p	4g#'\	p	4b'\	p	4gg#'\	p
2r	.	4g#'\	.	4b'\	.	4ee'\	.
.	.	4e'\	.	4g#'/	.	4gg#'\	.
=380	=380	=380	=380	=380	=380	=380	=380
4e\	.	4e\	.	4g#/	.	(2bb\	.
4r	.	4g#\	.	4b\	.	.	.
2r	.	4g#\	.	4b\	.	2eee\)	.
.	.	4e\	pp	4g#/	pp	.	.
=381	=381	=381	=381	=381	=381	=381	=381
4B\	pp	4f#\	.	4a/	.	4ddd#'\	pp
4r	.	4e\	.	4g#/	.	4eee'\	.
2r	.	4d#\	.	4f#/	.	4fff#'\	.
.	.	4c#\	.	4e/	.	4ggg#'\	.
=382	=382	=382	=382	=382	=382	=382	=382
4B\	.	4B/	.	4d#/	.	4aaa\	.
4B\	.	4b\	.	4dd#\	.	4r	.
4c#\	.	4b\	.	4ee\	.	2r	.
4d#\	.	4b\	.	4ff#\	.	.	.
=383	=383	=383	=383	=383	=383	=383	=383
4e\	.	4b\	.	4ee\	.	4ggg#'\	.
4e\	.	4g#\	.	4ee\	.	4fff#'\	.
4f#\	.	4a\	.	4ee\	.	4eee'\	.
4g#\	.	4b\	.	4ee\	.	4ddd#'\	.
=384	=384	=384	=384	=384	=384	=384	=384
4a\	.	4cc#\	.	4ee\	.	(2ccc#\	.
4A\	.	4e\	.	4cc#\	.	.	.
4A#\	.	4e\	.	4cc#\	.	2fff#\)	.
4r	.	4c#\	.	4f#/	.	.	.
=385	=385	=385	=385	=385	=385	=385	=385
4B\	.	4d#\	.	4f#/	.	4ddd#'\	.
4r	.	4f#\	.	4b\	.	4eee'\	.
4F#\	.	4f#\	.	4b-\	.	4ccc#'\	.
4r	.	4f#\	.	4a/	.	4ddd#'\	.
=386	=386	=386	=386	=386	=386	=386	=386
4A\	.	4d#\	.	4f#/	.	(2bb\	.
4r	.	4d#\	.	4f#/	.	.	.
4G#\	.	4B/	.	4e/	.	2eee\)	.
4r	.	4g#\	.	4bn\	.	.	.
=387	=387	=387	=387	=387	=387	=387	=387
4B\	.	4g#\	.	4b\	.	4eee'\	.
4r	.	4f#\	.	4aa\	.	4ddd#'\	.
4BB/	.	4f#\	.	4aa\	.	4ccc#'\	.
4r	.	4f#\	.	4aa\	.	4ddd#'\	.
=388	=388	=388	=388	=388	=388	=388	=388
4E\	.	4B/	.	4gg#\	.	4eee\	.
4f#\	.	4a\	.	4b\	.	4dd#\	.
4e\	.	4g#\	.	4b\	.	4ee\	.
4d#\	.	4f#\	.	4b\	.	4ff#\	.
=389	=389	=389	=389	=389	=389	=389	=389
4e\	.	4g#\	.	4b\	.	(4gg#\	.
4A\	.	4B/	.	4b\	.	4ff#\)	.
4G#\	.	4B/	.	4b\	.	4ee'\	.
4r	.	4e\	.	4b\	.	4dd#'\	.
=390	=390	=390	=390	=390	=390	=390	=390
4A\	.	4e\	.	4a/	.	(4cc#\	.
4r	.	4c#\	.	4f#/	.	4dd#\)	.
4A#\	.	4c#\	.	4f#/	.	4ee'\	.
4r	pp	4f#\	pp	4cc#\	pp	4ff#'\	pp
=391	=391	=391	=391	=391	=391	=391	=391
4B\	.	4f#\	.	4b\	.	(4dd#\	.
4r	.	4f#\	.	4b\	.	4ee\)	.
4F#\	.	4f#\	.	4a#/	.	4cc#'\	.
4r	.	4f#\	.	4an/	.	4dd#'\	.
=392	=392	=392	=392	=392	=392	=392	=392
4A\	.	4d#\	.	4f#/	.	(4b\	.
4r	.	4d#\	.	4f#/	.	4cc#\)	.
4G#\	.	4B/	.	4f#/	.	4dd#'\	.
4r	.	4G#/	.	4g#/	.	4ee'\	.
=393	=393	=393	=393	=393	=393	=393	=393
4B\	.	4G#/	.	4B/	.	(4ee\	.
4BB/	.	4F#/	.	4A/	.	4dd#\)	.
4BB/	.	4F#/	.	4a/	.	4cc#'\	.
4BB/	.	4f#\	.	4a/	.	4dd#'\	.
=394	=394	=394	=394	=394	=394	=394	=394
4G#\	.	4B/	.	4e/	.	(4ff#\	.
4GG#/	.	4G#/	.	4B/	.	4ee\)	.
4GG#/	.	4g#\	.	4b\	.	4dd#'\	.
4GG#/	.	4g#\	.	4b\	.	4ee'\	.
=395	=395	=395	=395	=395	=395	=395	=395
4D#\	.	4f#\	.	4b\	.	(4gg#\	.
4DD#/	.	4B/	.	4b\	.	4ff#\)	.
4DD#/	.	4B/	.	4b\	.	4ee#'\	.
4DD#/	.	4B/	.	4b\	.	4ff#'\	.
=396	=396	=396	=396	=396	=396	=396	=396
4E\	.	4B/	.	4b\	.	(4aa\	.
4EE/	.	4B/	.	4b\	.	4gg#\)	.
4EE/	.	4B/	.	4b\	.	4ff#'\	.
4EE/	.	4B/	.	4b\	.	4gg#'\	.
=397	=397	=397	=397	=397	=397	=397	=397
4c#\	.	4e\	.	4a/	.	(4bb\	.
4C#/	.	4c#\ 4e\	.	4cc#\ 4ee\	.	4aa\)	.
4C#/	.	4c#\ 4e\	.	4cc#\ 4ee\	.	4gg#'\	.
4C#/	.	4c#\ 4e\	.	4cc#\ 4ee\	.	4aa'\	.
=398	=398	=398	=398	=398	=398	=398	=398
4G#\	.	4B\ 4e\	.	4b\ 4ee\	.	(4ccc#\	.
4GG#/	.	4B\ 4e\	.	4b\ 4ee\	.	4bb\)	.
4GG#/	.	4B\ 4e\	.	4b\ 4ee\	.	4aa#'\	.
4GG#/	.	4B\ 4e\	.	4b\ 4ee\	.	4bb'\	.
=399	=399	=399	=399	=399	=399	=399	=399
4AA/	.	4c#\ 4e\	.	4cc#\ 4ee\	.	(4dddn\	.
4AA#/	.	4c#\ 4f#\	.	4cc#\ 4ee\	.	4ccc#\)	.
4BB/	.	4B\ 4g#\	.	4b\ 4ee\	.	4eee'\	.
4BB/	.	4B\ 4a\	.	4f#/ 4dd#/	.	4ddd#'\	.
=400	=400	=400	=400	=400	=400	=400	=400
4E\	.	4B\ 4g#\	.	4e/ 4ee/	.	4eee\	.
2r	.	4G#'/	.	4g#'/	.	4r	.
.	.	4G#'/	.	4g#'/	.	2r	.
4g#\	.	4B#'/	.	4d#'/	.	.	.
=401	=401	=401	=401	=401	=401	=401	=401
4g#\	.	4G#/	.	4B#/	.	4dd#'\	.
4r	.	4B#/	.	4d#/	.	4ccn'\	.
2r	.	4B#/	.	4d#/	.	4g#'/	.
.	.	4G#/	.	4B#/	.	4cc'\	.
=402	=402	=402	=402	=402	=402	=402	=402
4G#\	.	4G#/	.	4B#/	.	(2dd#\	.
4r	.	4B#/	.	4d#/	.	.	.
2r	.	4B#/	.	4d#/	.	2gg#\)	.
.	.	4G#/	.	4B#/	.	.	.
=403	=403	=403	=403	=403	=403	=403	=403
4c#\	.	4G#/	.	4c#/	.	4ee'\	.
4r	.	4c#\	.	4e/	.	4cc#'\	.
2r	.	4c#\	.	4e/	.	4g#'/	.
.	.	4G#/	.	4c#/	.	4cc#'\	.
=404	=404	=404	=404	=404	=404	=404	=404
4C#/	.	4A/	.	4c#/	.	(2ee\	.
4r	.	4c#\	.	4e/	.	.	.
2r	.	4c#\	.	4e/	.	2aa\)	.
.	.	4A/	.	4c#/	.	.	.
=405	=405	=405	=405	=405	=405	=405	=405
4F#\	.	4B/	.	4f#/	.	4ff#'\	.
4r	.	4d#\	.	4f#/	.	4dd#'\	.
2r	.	4d#\	.	4f#/	.	4b'\	.
.	.	4B/	.	4d#/	.	4dd#'\	.
=406	=406	=406	=406	=406	=406	=406	=406
4D#\	.	4B/	.	4f#/	.	(2ff#\	.
4r	.	4d#\	.	4f#/	.	.	.
2r	.	4d#\	.	4f#/	.	[2bb\)	.
.	.	4B/	.	4d#/ 4f#/	.	.	.
=407	=407	=407	=407	=407	=407	=407	=407
1r	.	1r	.	1r	.	4bb\]	.
.	.	.	.	.	.	(4ff#\	.
.	.	.	.	.	.	[2bb\)	.
=408	=408	=408	=408	=408	=408	=408	=408
1r	.	1r	.	4r	.	4bb\]	.
.	.	.	.	(4f#/	.	4r	.
.	.	.	.	[2b\)	.	2r	.
=409	=409	=409	=409	=409	=409	=409	=409
1r	.	4r	.	4b\]	.	1r	.
.	.	(4F#/	.	4r	.	.	.
.	.	[2B/)	.	2r	.	.	.
=410	=410	=410	=410	=410	=410	=410	=410
4r	.	4B/]	.	1r	.	1r	.
(4FF#/	.	4r	.	.	.	.	.
[2BB/)	.	2r	.	.	.	.	.
=411	=411	=411	=411	=411	=411	=411	=411
4BB/]	.	1r	.	1r	.	4r	.
4r	.	.	.	.	.	(4ggn\	.
2r	.	.	.	.	.	[2bb\)	.
=412	=412	=412	=412	=412	=412	=412	=412
1r	.	1r	.	4r	.	4bb\]	.
.	.	.	.	(4gn/	.	4r	.
.	.	.	.	[2b\)	.	2r	.
=413	=413	=413	=413	=413	=413	=413	=413
1r	.	4r	.	4b\]	.	1r	.
.	.	(4Gn/	.	4r	.	.	.
.	.	[2B/)	.	2r	.	.	.
=414	=414	=414	=414	=414	=414	=414	=414
4r	.	4B/]	.	1r	.	1r	.
(4GGn/	.	4r	.	.	.	.	.
[2BB/)	.	2r	.	.	.	.	.
=415	=415	=415	=415	=415	=415	=415	=415
4BB/]	.	1r	.	1r	.	4r	.
4r	.	.	.	.	.	8r	.
.	.	.	.	.	.	(8gg#\	.
2r	.	.	.	.	.	4bb\)	.
.	.	.	.	.	.	[4bb\	.
=416	=416	=416	=416	=416	=416	=416	=416
1r	.	1r	.	4r	.	4bb\]	.
.	.	.	.	8r	.	4r	.
.	.	.	.	(8g#/	.	.	.
.	.	.	.	4b\)	.	2r	.
.	.	.	.	[4b\	.	.	.
=417	=417	=417	=417	=417	=417	=417	=417
1r	.	4r	.	4b\]	.	1r	.
.	.	8r	.	4r	.	.	.
.	.	(8G#/	.	.	.	.	.
.	.	4B/)	.	2r	.	.	.
.	.	[4B/	.	.	.	.	.
=418	=418	=418	=418	=418	=418	=418	=418
4r	.	4B/]	.	1r	.	1r	.
8r	.	4r	.	.	.	.	.
(8GG#/	.	.	.	.	.	.	.
4BB/)	.	2r	.	.	.	.	.
(4BB/	.	.	.	.	.	.	.
=419	=419	=419	=419	=419	=419	=419	=419
4D#'\)	pp	2r	.	1r	.	1r	.
4BB'/	.	.	.	.	.	.	.
4GG#'/	.	4d#'\	pp	.	.	.	.
4BB'/	.	4B'/	.	.	.	.	.
=420	=420	=420	=420	=420	=420	=420	=420
4D#\	.	4G#'/	.	4d#'/	pp	2r	.
4r	.	4B'/	.	4B'/	.	.	.
4G#\	.	2r	.	4G#'/	.	4d#'/	pp
4r	.	.	.	4B'/	.	4B'/	.
=421	=421	=421	=421	=421	=421	=421	=421
4B\	.	4d#\	.	2r	.	4G#'/	.
4r	.	4B/	.	.	.	4B'/	.
4d#\	.	4G#/	.	4d#/	.	2r	.
4r	.	4B/	.	4B/	.	.	.
=422	=422	=422	=422	=422	=422	=422	=422
4g#\	.	2r	.	4G#/	.	4d#/	.
4r	.	.	.	4B/	.	4B/	.
4g#\	.	4d#\	.	2r	.	4G#/	.
4r	.	4B/	.	.	.	4B/	.
=423	=423	=423	=423	=423	=423	=423	=423
4g#\	.	4G#/	.	2r	.	4dd#\	.
4r	.	4B/	.	.	.	4b\	.
2r	.	4B/	.	4d#/	.	4g#/	.
.	.	4G#/	.	4B/	.	4b\	.
=424	=424	=424	=424	=424	=424	=424	=424
4g#\	.	4g#\	.	4b\	.	(2dd#\	.
4r	.	4b\	.	4dd#\	.	.	.
2r	.	4b\	.	4dd#\	.	2gg#\)	.
.	.	4b\	.	4dd#\	.	.	.
=425	=425	=425	=425	=425	=425	=425	=425
4d#\	.	4a#\	.	4cc#\	.	4ff##\	.
4r	.	4g#\	.	4b\	.	4gg#\	.
2r	.	4d#\	.	4f##/	.	4aa#\	.
.	.	4d#\	.	4g#/	.	4bb\	.
=426	=426	=426	=426	=426	=426	=426	=426
4d#\	.	4f##\	.	4a#/	.	4ccc#\	.
4d#\	.	4g#\	.	4b\	.	4bb\	.
4d#\	.	4a#\	.	4ff##\	.	4aa#\	.
4d#;\	.	4a#;\	.	4ff##;\	.	4ccc#;\	.
=427	=427	=427	=427	=427	=427	=427	=427
4e\	.	4g#'\	.	4gg#'\	.	4bb'\	.
4r	f	4g#'\	f	4b'\	f	4gg#'\	f
2r	.	4g#'\	.	4b'\	.	4ee'\	.
.	.	4e'\	.	4g#'/	.	4gg#'\	.
=428	=428	=428	=428	=428	=428	=428	=428
4e\	.	4e\	.	4g#/	.	(2bb\	.
4r	.	4g#\	.	4b\	.	.	.
2r	.	4g#\	.	4b\	.	2eee\)	.
.	.	4e\	.	4g#/	.	.	.
=429	=429	=429	=429	=429	=429	=429	=429
4B\	.	4f#\	.	4a/	.	4ddd#'\	.
4r	.	4e\	.	4g#/	.	4eee'\	.
2r	.	4d#\	.	4f#/	.	4fff#'\	.
.	.	4c#\	.	4e/	.	4ggg#'\	.
=430	=430	=430	=430	=430	=430	=430	=430
4B\	.	4B/	.	4d#/	.	4aaa\	.
4B\	.	4b\	.	4dd#\	.	4r	.
4c#\	.	4b\	.	4ee\	.	2r	.
4d#\	.	4b\	.	4ff#\	.	.	.
=431	=431	=431	=431	=431	=431	=431	=431
4e\	.	4b\	.	4ee\	.	4ggg#'\	.
4e\	.	4g#\	.	4ee\	.	4fff#'\	.
4f#\	.	4a\	.	4ee\	.	4eee'\	.
4g#\	.	4b\	.	4ee\	.	4ddd#'\	.
=432	=432	=432	=432	=432	=432	=432	=432
4a\	.	4cc#\	.	4ee\	.	(2ccc#\	.
4A\	.	4e\	.	4cc#\	.	.	.
4A#\	.	4e\	.	4cc#\	.	2fff#\)	.
4r	.	4c#\	.	4f#/	.	.	.
=433	=433	=433	=433	=433	=433	=433	=433
4B\	.	4d#\	.	4f#/	.	4ddd#'\	.
4r	.	4f#\	.	4b\	.	4eee'\	.
4F#\	.	4f#\	.	4b-\	.	4ccc#'\	.
4r	.	4f#\	.	4a/	.	4ddd#'\	.
=434	=434	=434	=434	=434	=434	=434	=434
4A\	.	4d#\	.	4f#/	.	(2bb\	.
4r	.	4d#\	.	4f#/	.	.	.
4G#\	.	4B/	.	4e/	.	2eee\)	.
4r	.	4g#\	.	4bn\	.	.	.
=435	=435	=435	=435	=435	=435	=435	=435
4B\	.	4g#\	.	4b\	.	4eee'\	.
4r	.	4f#\	.	4aa\	.	4ddd#'\	.
4BB/	.	4f#\	.	4aa\	.	4ccc#'\	.
4r	.	4f#\	.	4aa\	.	4ddd#'\	.
=436	=436	=436	=436	=436	=436	=436	=436
4E\	.	4B/	.	4gg#\	.	4eee\	.
4f#\	p	4a\	p	4b\	p	4dd#\	p
4e\	.	4g#\	.	4b\	.	4ee\	.
4d#\	.	4f#\	.	4b\	.	4ff#\	.
=437	=437	=437	=437	=437	=437	=437	=437
4e\	.	4g#\	.	4b\	.	(4gg#\	.
4A\	.	4B/	.	4b\	.	4ff#\)	.
4G#\	.	4B/	.	4b\	.	4ee'\	.
4r	.	4e\	.	4b\	.	4dd#'\	.
=438	=438	=438	=438	=438	=438	=438	=438
4A\	.	4e\	.	4a/	.	(4cc#\	.
4r	.	4c#\	.	4f#/	.	4dd#\)	.
4A#\	.	4c#\	.	4f#/	.	4ee'\	.
4r	.	4f#\	.	4cc#\	.	4ff#'\	.
=439	=439	=439	=439	=439	=439	=439	=439
4B\	.	4f#\	.	4b\	.	(4dd#\	.
4r	.	4f#\	.	4b\	.	4ee\)	.
4F#\	.	4f#\	.	4b-\	.	4cc#'\	.
4r	.	4f#\	.	4a/	.	4dd#'\	.
=440	=440	=440	=440	=440	=440	=440	=440
4A\	.	4d#\	.	4f#/	.	(4b\	.
4r	.	4d#\	.	4f#/	.	4cc#\)	.
4G#\	.	4B/	.	4f#/	.	4dd#'\	.
4r	.	4G#/	.	4g#/	.	4ee'\	.
=441	=441	=441	=441	=441	=441	=441	=441
4B\	.	4G#/	.	4B/	.	(4ee\	.
4BB/	.	4F#/	.	4A/	.	4dd#\)	.
4BB/	.	4F#/	.	4a/	.	4cc#'\	.
4BB/	.	4f#\	.	4a/	.	4dd#'\	.
=442	=442	=442	=442	=442	=442	=442	=442
4G#\	.	4B/	.	4e/	.	(4ff#\	.
4GG#/	.	4G#/	.	4B/	.	4ee\)	.
4GG#/	.	4g#\	.	4b\	.	4dd#'\	.
4GG#/	.	4g#\	.	4b\	.	4ee'\	.
=443	=443	=443	=443	=443	=443	=443	=443
4D#\	f	4f#\	f	4b\	f	(4gg#\	f
4DD#/	.	4B/	.	4b\	.	4ff#\)	.
4DD#/	.	4B/	.	4b\	.	4ee#'\	.
4DD#/	.	4B/	.	4b\	.	4ff#'\	.
=444	=444	=444	=444	=444	=444	=444	=444
4E\	.	4B/	.	4b\	.	(4aa\	.
4EE/	.	4B/	.	4b\	.	4gg#\)	.
4EE/	.	4B/	.	4b\	.	4ff#'\	.
4EE/	.	4B/	.	4b\	.	4gg#'\	.
=445	=445	=445	=445	=445	=445	=445	=445
4c#\	f	4e\	f	4a/	f	(4bb\	f
4C#/	.	4c#\ 4e\	.	4cc#\ 4ee\	.	4aa\)	.
4C#/	.	4c#\ 4e\	.	4cc#\ 4ee\	.	4gg#'\	.
4C#/	.	4c#\ 4e\	.	4cc#\ 4ee\	.	4aa'\	.
=446	=446	=446	=446	=446	=446	=446	=446
4G#\	f	4B\ 4e\	f	4b\ 4ee\	f	(4ccc#\	f
4GG#/	.	4B\ 4e\	.	4b\ 4ee\	.	4bb\)	.
4GG#/	.	4B\ 4e\	.	4b\ 4ee\	.	4aa#'\	.
4GG#/	.	4B\ 4e\	.	4b\ 4ee\	.	4bb'\	.
=447	=447	=447	=447	=447	=447	=447	=447
4AA/	f	4c#\ 4e\	f	4cc#\ 4ee\	f	(4dddn\	f
4AA#/	.	4c#\ 4f#\	.	4cc#\ 4ee\	.	4ccc#\)	.
4BB/	.	4B\ 4g#\	.	4b\ 4ee\	.	4eee'\	.
4BB/	.	4B\ 4a\	.	4f#/ 4dd#/	.	4ddd#'\	.
=448	=448	=448	=448	=448	=448	=448	=448
4E\	.	4B\ 4g#\	.	4e/ 4ee/	.	4eee\	.
2r	.	4e\	p	4r	.	4r	.
.	.	4B/	.	2r	.	2r	.
4B\	p	4r	.	.	.	.	.
=449	=449	=449	=449	=449	=449	=449	=449
4E\	.	4r	.	(2G#/	p	(2g#/	p
2r	.	4e\	.	.	.	.	.
.	.	4B/	.	2A/	.	2a/	.
4B\	.	4r	.	.	.	.	.
=450	=450	=450	=450	=450	=450	=450	=450
4E\	.	4r	.	2B/	.	2b\	.
2r	.	4e\	.	.	.	.	.
.	.	4B/	.	2e/)	.	2ee\)	.
4B\	.	4r	.	.	.	.	.
=451	=451	=451	=451	=451	=451	=451	=451
4E\	.	4r	.	(4f#/	.	(4ff#\	.
2r	.	4e\	.	4g#/	.	4gg#\	.
.	.	4B/	.	4a/	.	4aa\	.
4B\	.	4r	.	4f#/)	.	4ff#\)	.
=452	=452	=452	=452	=452	=452	=452	=452
4E\	.	4r	.	(2b\	.	(2bb\	.
4BB/	.	4B/	.	.	.	.	.
4EE/	.	4E/	.	4ee\)	.	4eee\)	.
4r;	.	4r;	.	4r;	.	4r;	.
=453	=453	=453	=453	=453	=453	=453	=453
*clefC4	*clefC4	*	*	*	*	*	*
(4f#\	p	1r	.	1r	.	(4ff#\	p
4g#\	.	.	.	.	.	4gg#\	.
4a\	.	.	.	.	.	4aa\	.
4f#\	.	.	.	.	.	4ff#\	.
=454	=454	=454	=454	=454	=454	=454	=454
2e\	.	(4f#\	.	(4ff#\	.	2ee\	.
.	.	4g#\	.	4gg#\	.	.	.
2A\	.	4a\	.	4aa\	.	2a/	.
.	.	4f#\	.	4ff#\	.	.	.
=455	=455	=455	=455	=455	=455	=455	=455
2c#\	.	2e\	.	2ee\	.	2cc#\	.
2e\	.	[2A/)	.	[2a/)	.	2ee\	.
=456	=456	=456	=456	=456	=456	=456	=456
2f#\	.	(2A/]	.	(2a/]	.	2ff#\	.
4e\)	.	4c#\)	.	4cc#\)	.	4ee\)	.
4r;	.	4r;	.	4r;	.	4r;	.
=457	=457	=457	=457	=457	=457	=457	=457
*k[f#c#g#]	*k[f#c#g#]	*k[f#c#g#]	*k[f#c#g#]	*k[f#c#g#]	*k[f#c#g#]	*k[f#c#g#]	*k[f#c#g#]
1r	.	1r	.	2r	.	4dddn'\	.
.	.	.	.	.	.	4bb'\	p
.	.	.	.	4gg#'\	.	2bb\	.
.	.	.	.	4ee'\	p	.	.
=458	=458	=458	=458	=458	=458	=458	=458
1r	.	1r	.	2r	.	4eee'\	.
.	.	.	.	.	.	4ccc#'\	.
.	.	.	.	4aa'\	.	2ccc#\	.
.	.	.	.	4ee'\	.	.	.
=459	=459	=459	=459	=459	=459	=459	=459
1r	.	1r	.	2r	.	4ddd\	.
.	.	.	.	.	.	4bb\	.
.	.	.	.	4gg#\	.	4bb\	.
.	.	.	.	4ee\	.	4bb\	.
=460	=460	=460	=460	=460	=460	=460	=460
*clefF4	*clefF4	*	*	*	*	*	*
2r	.	2r	.	2r	.	4eee\	.
.	.	.	.	.	.	4aaa\	.
4C#'/	.	4c#'\	.	4aa\	.	2aaa\	.
4AA'/	p	4A'/	p	4cc#\	.	.	.
=461	=461	=461	=461	=461	=461	=461	=461
4D\	.	4d\	.	2r	.	2r	.
4BB/	.	4B/	.	.	.	.	.
4BB/	.	4B/	.	4dd\	.	4ddd\	.
4BB/	.	4B/	.	4b\	.	4bb\	.
=462	=462	=462	=462	=462	=462	=462	=462
4E\	.	4e\	.	2r	.	2r	.
4A\	.	4a\	.	.	.	.	.
2A\	.	2a\	.	4ee\	.	4eee\	.
.	.	.	.	4cc#\	.	4ccc#\	.
=463	=463	=463	=463	=463	=463	=463	=463
4D\	.	4d\	.	2r	.	2r	.
4BB/	.	4B/	.	.	.	.	.
4BB/	.	4B/	.	4dd\	.	4ddd\	.
4BB/	.	4B/	.	4b\	.	4bb\	.
=464	=464	=464	=464	=464	=464	=464	=464
1r	.	1r	.	1r	.	1r	.
=465	=465	=465	=465	=465	=465	=465	=465
4E\	.	4e\	.	1r	.	1r	.
4C#/	.	4c#\	.	.	.	.	.
4AA/	.	4A/	.	.	.	.	.
4C#/	.	4c#\	.	.	.	.	.
=466	=466	=466	=466	=466	=466	=466	=466
1r	.	1r	.	1r	.	1r	.
=467	=467	=467	=467	=467	=467	=467	=467
1r	.	2r	.	4ee\	.	1r	.
.	.	.	.	4r	.	.	.
.	.	4ee\	.	2r	.	.	.
.	.	4r	.	.	.	.	.
=468	=468	=468	=468	=468	=468	=468	=468
1r	.	1r	.	2r	.	4cc#\	.
.	.	.	.	.	.	4r	.
.	.	.	.	4cc#\	.	2r	.
.	.	.	.	4r	.	.	.
=469	=469	=469	=469	=469	=469	=469	=469
1r	.	4b\	.	1r	.	2r	.
.	.	4r	.	.	.	.	.
.	.	2r	.	.	.	4b\	.
.	.	.	.	.	.	4r	.
=470	=470	=470	=470	=470	=470	=470	=470
4g#\	.	1r	.	2r	.	1r	.
4r	.	.	.	.	.	.	.
2r	.	.	.	4g#/	.	.	.
.	.	.	.	4r	.	.	.
=471	=471	=471	=471	=471	=471	=471	=471
*clefC4	*clefG2	*	*	*	*	*	*
4b'\	.	2r	.	1r	.	4e/	.
4g#'\	.	.	.	.	.	4r	.
4e'\	.	4e\	.	.	.	2r	.
4g#'\	.	4r	.	.	.	.	.
=472	=472	=472	=472	=472	=472	=472	=472
*k[f#c#g#d#]	*k[f#c#g#d#]	*k[f#c#g#d#]	*k[f#c#g#d#]	*k[f#c#g#d#]	*k[f#c#g#d#]	*k[f#c#g#d#]	*k[f#c#g#d#]
4b'\	.	2r	.	4g#/	.	4bb'\	.
4g#'\	.	.	.	4r	.	4gg#'\	.
4e'\	p	4g#\	p	2r	.	4ee'\	.
4g#'\	.	4r	.	.	.	4gg#'\	.
=473	=473	=473	=473	=473	=473	=473	=473
4b\	pp	4ee'\	pp	4gg#'\	pp	4bb'\	pp
4g#\	.	4b'\	.	4ee'\	.	4gg#'\	.
4e\	.	4g#'\	.	4b'\	.	4ee'\	.
4g#\	.	4b'\	.	4ee'\	.	4gg#'\	.
=474	=474	=474	=474	=474	=474	=474	=474
4b\	.	4ee\	.	4gg#\	.	(2bb\	.
4b\	.	4ee\	.	4gg#\	.	.	.
4b\	.	4ff#\	.	4aa\	.	2eee\)	.
4b\	.	4ee\	.	4gg#\	.	.	.
=475	=475	=475	=475	=475	=475	=475	=475
4b\	.	4ff#\	.	4aa\	.	4ddd#'\	.
4b\	.	4ee\	.	4gg#\	.	4eee'\	.
4b\	.	4dd#\	.	4ff#\	.	4fff#'\	.
4b\	.	4cc#\	.	4ee\	.	4ggg#'\	.
=476	=476	=476	=476	=476	=476	=476	=476
4b\	.	4b\	.	4dd#\	.	4aaa\	.
4b\	.	4a\	.	4cc#\	.	4r	.
4b\	.	4g#\	.	4b\	.	2r	.
4b\	.	4f#\	.	4dd#\	.	.	.
=477	=477	=477	=477	=477	=477	=477	=477
4b\	.	4g#\	.	4ee\	.	4ggg#\	.
4b\	.	4g#\	.	4ee\	.	4fff#\	.
4b\	.	4a\	.	4ff#\	.	4eee\	.
4b\	.	4b\	.	4gg#\	.	4ddd#\	.
=478	=478	=478	=478	=478	=478	=478	=478
4b\	.	4b\	.	4gg#\	.	4ccc#\	.
4b\	.	4a\	.	4ff#\	.	4ddd#\	.
4b\	.	4g#\	.	4ee\	.	4eee\	.
4b\	.	4f#\	.	4dd#\	.	4fff#\	.
=479	=479	=479	=479	=479	=479	=479	=479
4b\	.	4f#\	.	4dd#\	.	4ddd#\	.
4b\	.	4a#\	.	4cc#\	.	4eee\	.
4b\	.	4an\	.	4cc#\	.	4ccc#\	.
4b\	.	4a\	.	4ff#\	.	4ddd#\	.
=480	=480	=480	=480	=480	=480	=480	=480
4b\	.	4g#\	.	4ff#\	.	4bb\	.
4b\	.	4g#\	.	4ee\	.	4ccc#\	.
4b\	.	4g#\	.	4ff#\	.	4ddd#\	.
4b\	.	4g#\	.	4gg#\	.	4eee\	.
=481	=481	=481	=481	=481	=481	=481	=481
4b\	.	4g#\	.	4ee\	.	(4eee\	.
4b\	.	4a\	.	4ff#\	.	4ddd#\)	.
4b\	.	4ff#\	.	4aa\	.	4ccc#'\	.
4b\	pp	4ff#\	pp	4aa\	pp	4ddd#'\	pp
=482	=482	=482	=482	=482	=482	=482	=482
4b\	.	(4ee\	.	(4gg#\	.	(4eee\	.
4b\	.	4ff#\)	.	4aa\)	.	4ddd#\)	.
4b\	.	4ff#'\	.	4aa'\	.	4ccc#'\	.
4b\	.	4ff#'\	.	4aa'\	.	4ddd#'\	.
=483	=483	=483	=483	=483	=483	=483	=483
4b\	.	(4ee\	.	(4gg#\	.	(4eee\	.
4b\	.	4ff#\)	.	4aa\)	.	4ddd#\)	.
4b\	.	4ff#'\	.	4aa'\	.	4ccc#'\	.
4b\	.	4ff#'\	.	4aa'\	.	4ddd#'\	.
=484	=484	=484	=484	=484	=484	=484	=484
4b\	.	4ee\	.	(4gg#\	.	(4eee\	.
4b\	.	4B/	.	4ff#\)	.	4aa\)	.
4b\	.	4B/	.	4ee'\	.	4gg#'\	.
4b\	.	4B/	.	4ff#'\	.	4aa'\	.
=485	=485	=485	=485	=485	=485	=485	=485
4b\	.	(4E/	.	(4gg#\	.	(4bb\	.
4b\	.	4F#/)	.	4ff#\)	.	4aa\)	.
4b\	.	4G#'/	.	4ee'\	.	4gg#'\	.
4b\	.	4F#'/	.	4ff#'\	.	4aa'\	.
=486	=486	=486	=486	=486	=486	=486	=486
4b\	.	(4E/	.	(4gg#\	.	(4bb\	.
4b\	.	4F#/)	.	4ff#\)	.	4aa\)	.
4b\	.	4G#'/	.	4ee'\	.	4gg#'\	.
4b\	.	4F#'/	.	4ff#'\	.	4aa'\	.
=487	=487	=487	=487	=487	=487	=487	=487
4b\	.	(4E/	.	(4gg#\	.	(4bb\	.
4b\	.	4F#/)	.	4ff#\)	.	4aa\)	.
4b\	.	4G#'/	.	4ee'\	.	4gg#'\	.
4b\	.	4F#'/	.	4ff#'\	.	4aa'\	.
=488	=488	=488	=488	=488	=488	=488	=488
4b\	.	(4E/	.	(4gg#\	.	(4bb\	.
4b\	.	4F#/)	.	4ff#\)	.	4aa\)	.
4b\	.	4G#'/	.	4ee'\	.	4gg#'\	.
4b\	.	4F#'/	.	4ff#'\	.	4aa'\	.
=489	=489	=489	=489	=489	=489	=489	=489
4b\	.	(4E/	.	(4gg#\	.	(4bb\	.
*clefF4	*clefF4	*	*	*	*	*	*
4EE/	.	4F#/)	.	4ff#\)	.	4aa\)	.
4EE/	.	4G#'/	.	4ee'\	.	4gg#'\	.
4EE/	.	4F#'/	.	4ff#'\	.	4aa'\	.
=490	=490	=490	=490	=490	=490	=490	=490
(4EE/	.	(4G#/	.	(4ee\	.	(4gg#\	.
4FF#/)	.	4A/)	.	4b\)	.	4ff#\)	.
4GG#'/	.	4B'/	.	4g#'/	.	4ee'\	.
4FF#'/	.	4A'/	.	4b'\	.	4ff#'\	.
=491	=491	=491	=491	=491	=491	=491	=491
(4GG#/	.	(4B/	.	(4g#/	.	(4ee\	.
4BB/)	.	4d#\)	.	4f#/)	.	4b\)	.
4E'\	.	4e'\	.	4B'/	.	4g#'/	.
4BB'/	.	4E'/	.	4f#'/	.	4b'\	.
=492	=492	=492	=492	=492	=492	=492	=492
(4E\	.	(4G#/	.	(4e/	.	(4g#/	.
4F#\)	.	4A/)	.	4B/)	.	4f#/)	.
4G#'\	.	4e'\	.	4B'/	.	4e'/	.
4B'\	.	4d#'\	.	4B'/	.	4f#'/	.
=493	=493	=493	=493	=493	=493	=493	=493
(4e\	.	(4g#\	.	(4G#/	.	(4e/	.
4B\)	.	4f#\)	.	4B/)	.	4f#/)	.
4G#'\	.	4e'\	.	4e'/	.	4g#'/	.
4B'\	.	4f#'\	.	4B'/	.	4f#'/	.
=494	=494	=494	=494	=494	=494	=494	=494
(4G#\	.	(4e\	.	(4e/	.	(4g#/	.
4F#\)	.	4B/)	.	4f#/)	.	4b\)	.
4E'\	.	4G#'/	.	4g#'/	.	4ee'\	.
4F#'\	.	4B'/	.	4f#'/	.	4b'\	.
=495	=495	=495	=495	=495	=495	=495	=495
(4E\	.	(4G#/	.	(4g#/	.	(4ee\	.
4BB/)	.	4F#/)	.	4b\)	.	4ff#\)	.
4GG#'/	.	4E'/	.	4ee'\	.	4gg#'\	.
4BB'/	.	4F#'/	.	4b'\	.	4ff#'\	.
=496	=496	=496	=496	=496	=496	=496	=496
(4GG#/	.	(4E/	.	(4ee\	.	(4gg#\	.
4FF#/)	.	4D#/)	.	4ff#\)	.	4bb\)	.
4EE'/	.	4C#'/	.	4gg#'\	.	4eee'\	.
4FF#'/	.	4D#'/	.	4ff#'\	.	4bb'\	.
=497	=497	=497	=497	=497	=497	=497	=497
4EE/	f	4E/	f	4gg#\	f	4eee\	f
4r	.	4r	.	4r	.	4r	.
4e\	.	4E/	.	4e/	.	4e/	.
4r	.	4r	.	4r	.	4r	.
=498	=498	=498	=498	=498	=498	=498	=498
4EE/	ff	4E/ 4B/ 4g#/	ff	4e\ 4b\ 4gg#\	ff	4eee\	ff
4r	.	4r	.	4r	.	4r	.
2r;	.	2r;	.	2r;	.	2r;	.
=499	=499	=499	=499	=499	=499	=499	=499
4GG#/	.	4g#\	.	4g#/	.	4gg#\	.
4r	.	4r	.	4r	.	4r	.
4g#\	.	4G#/	.	4G#/	.	4G#/	.
4r	.	4r	.	4r	.	4r	.
=500	=500	=500	=500	=500	=500	=500	=500
4GG#/	.	4G#/	.	4g#/	.	4gg#\	.
4r	.	4r	.	4r	.	4r	.
2r;	.	2r;	.	2r;	.	2r;	.
==	==	==	==	==	==	==	==
*-	*-	*-	*-	*-	*-	*-	*-
